MODULE Module1
   TASK PERS tooldata Pinza:=[TRUE,[[-236.316,0,416.8],[1,0,0,0]],[68,[0,0,321.1],[1,0,0,0],0,0,0]];  
    	VAR robtarget P16B_2:=[[800.631462478,64.991853084,1520],[0,0.697269293,0.716809272,0],[0,-1,1,0],[9E+09,9E+09,9E+09,9E+09,9E+09,9E+09]];
	VAR robtarget P16B_5:=[[800.631462478,-937.946222754,1520],[0,0.697269293,0.716809272,0],[-1,0,0,0],[9E+09,9E+09,9E+09,9E+09,9E+09,9E+09]];
	VAR robtarget P16B:=[[800.631462478,-1731,1520],[0,0.697269293,0.716809272,0],[-1,0,0,0],[9E+09,9E+09,9E+09,9E+09,9E+09,9E+09]];
	VAR robtarget P16A_2:=[[905,75.153854757,1520],[0,0.697269293,0.716809272,0],[0,-1,2,0],[9E+09,9E+09,9E+09,9E+09,9E+09,9E+09]];
	VAR robtarget P16A_5:=[[905,-927.736321427,1520],[0,0.697269293,0.716809272,0],[-1,0,0,0],[9E+09,9E+09,9E+09,9E+09,9E+09,9E+09]];
	VAR robtarget P16A:=[[905,-1731,1520],[0,0.697269293,0.716809272,0],[-1,0,1,0],[9E+09,9E+09,9E+09,9E+09,9E+09,9E+09]];
	VAR robtarget P15B_2:=[[1085,85.533906904,1520],[0,0.697269293,0.716809272,0],[-1,0,1,0],[9E+09,9E+09,9E+09,9E+09,9E+09,9E+09]];
	VAR robtarget P15B:=[[1085,-1731,1520],[0,0.697269293,0.716809272,0],[-1,-1,1,0],[9E+09,9E+09,9E+09,9E+09,9E+09,9E+09]];
	VAR robtarget P15A_2:=[[1190,89.459090808,1520],[0,0.697269293,0.716809272,0],[-1,0,1,0],[9E+09,9E+09,9E+09,9E+09,9E+09,9E+09]];
	VAR robtarget P15A:=[[1190,-1731,1520],[0,0.697269293,0.716809272,0],[-1,-1,1,0],[9E+09,9E+09,9E+09,9E+09,9E+09,9E+09]];
	VAR robtarget P14B_2:=[[1360,99.830432442,1520],[0,0.697269293,0.716809272,0],[-1,0,1,0],[9E+09,9E+09,9E+09,9E+09,9E+09,9E+09]];
	VAR robtarget P14B:=[[1360,-1731,1520],[0,0.697269293,0.716809272,0],[-1,-1,1,0],[9E+09,9E+09,9E+09,9E+09,9E+09,9E+09]];
	VAR robtarget P14A_2:=[[1465.090597742,103.755616346,1520],[0,0.697269293,0.716809272,0],[-1,0,1,0],[9E+09,9E+09,9E+09,9E+09,9E+09,9E+09]];
	VAR robtarget P14A:=[[1465.090597742,-1731,1520],[0,0.697269293,0.716809272,0],[-1,-1,1,0],[9E+09,9E+09,9E+09,9E+09,9E+09,9E+09]];
	VAR robtarget P12B_2:=[[1932,130.215438854,1500],[0.50131,0.49607,0.50885,0.49363],[-1,-1,0,1],[9E+09,9E+09,9E+09,9E+09,9E+09,9E+09]];
	VAR robtarget P12B_5:=[[1932,-813.523760687,1500],[0.50131,0.49607,0.50885,0.49363],[-1,-1,1,1],[9E+09,9E+09,9E+09,9E+09,9E+09,9E+09]];
	VAR robtarget P12B:=[[1932,-1731,1500],[0.50131,0.49607,0.50885,0.49363],[-1,-1,1,1],[9E+09,9E+09,9E+09,9E+09,9E+09,9E+09]];
	VAR robtarget P12A_2:=[[2037.672481271,134.783363126,1500],[0.50131,0.49607,0.50885,0.49363],[-1,-1,1,1],[9E+09,9E+09,9E+09,9E+09,9E+09,9E+09]];
	VAR robtarget P12A:=[[2037,-1731,1500],[0.50131,0.49607,0.50885,0.49363],[-1,-1,1,1],[9E+09,9E+09,9E+09,9E+09,9E+09,9E+09]];
	VAR robtarget P13B_2:=[[1637,116.570364171,1500],[0.50131,0.49607,0.50885,0.49363],[0,0,1,1],[9E+09,9E+09,9E+09,9E+09,9E+09,9E+09]];
	VAR robtarget P13B_5:=[[1637,-827.16883537,1500],[0.50131,0.49607,0.50885,0.49363],[-1,-1,2,1],[9E+09,9E+09,9E+09,9E+09,9E+09,9E+09]];
	VAR robtarget P13B:=[[1637,-1731,1500],[0.50131,0.49607,0.50885,0.49363],[-1,-1,1,1],[9E+09,9E+09,9E+09,9E+09,9E+09,9E+09]];
	VAR robtarget P13A_2:=[[1742,120.48683758,1500],[0.50131,0.49607,0.50885,0.49363],[-1,-1,0,1],[9E+09,9E+09,9E+09,9E+09,9E+09,9E+09]];
	VAR robtarget P13A_5:=[[1742,-565.453039014,1500],[0.50131,0.49607,0.50885,0.49363],[-1,-1,0,1],[9E+09,9E+09,9E+09,9E+09,9E+09,9E+09]];
	VAR robtarget P13A:=[[1742,-1731,1500],[0.50131,0.49607,0.50885,0.49363],[-1,-1,1,1],[9E+09,9E+09,9E+09,9E+09,9E+09,9E+09]];
	VAR robtarget P12B_2B:=[[1932,130.215438854,1495],[0.495795153,0.501708655,0.503256953,0.499207403],[-1,-1,0,1],[9E+09,9E+09,9E+09,9E+09,9E+09,9E+09]];
	VAR robtarget P12B_B:=[[1932,-1731,1495],[0.495795153,0.501708655,0.503256953,0.499207403],[-1,-1,1,1],[9E+09,9E+09,9E+09,9E+09,9E+09,9E+09]];
	VAR robtarget P12A_2B:=[[2037,134.783363126,1495],[0.495795153,0.501708655,0.503256953,0.499207403],[-1,-1,1,1],[9E+09,9E+09,9E+09,9E+09,9E+09,9E+09]];
	VAR robtarget P12A_B:=[[2037,-1731,1495],[0.495795153,0.501708655,0.503256953,0.499207403],[-1,-1,1,1],[9E+09,9E+09,9E+09,9E+09,9E+09,9E+09]];
	VAR robtarget P13B_2B:=[[1637,116.570364171,1490],[0.495795153,0.501708655,0.503256953,0.499207403],[0,0,1,1],[9E+09,9E+09,9E+09,9E+09,9E+09,9E+09]];
	VAR robtarget P13B_B:=[[1637,-1731,1490],[0.495795153,0.501708655,0.503256953,0.499207403],[-1,-1,1,1],[9E+09,9E+09,9E+09,9E+09,9E+09,9E+09]];
	VAR robtarget P13A_2B:=[[1742,120.48683758,1490],[0.495795153,0.501708655,0.503256953,0.499207403],[-1,-1,0,1],[9E+09,9E+09,9E+09,9E+09,9E+09,9E+09]];
	VAR robtarget P13A_B:=[[1742,-1731,1490],[0.495795153,0.501708655,0.503256953,0.499207403],[-1,-1,1,1],[9E+09,9E+09,9E+09,9E+09,9E+09,9E+09]];
	VAR robtarget P12B_5B:=[[1932,-813.523760687,1490],[0.495795153,0.501708655,0.503256953,0.499207403],[-1,-1,1,1],[9E+09,9E+09,9E+09,9E+09,9E+09,9E+09]];
	VAR robtarget P13B_5B:=[[1637,-827.16883537,1490],[0.495795153,0.501708655,0.503256953,0.499207403],[-1,-1,2,1],[9E+09,9E+09,9E+09,9E+09,9E+09,9E+09]];
	VAR robtarget P13A_5B:=[[1637,-565.453039014,1490],[0.495795153,0.501708655,0.503256953,0.499207403],[-1,-1,0,1],[9E+09,9E+09,9E+09,9E+09,9E+09,9E+09]];
    	VAR robtarget Target_50:=[[-143.3,-1096.29,750],[0,0.701006,0.713156,0],[-2,0,-1,0],[9E+09,9E+09,9E+09,9E+09,9E+09,9E+09]];
	VAR robtarget Target_60:=[[-143.3,-1290,596.1],[0,0.701006,0.713156,0],[-2,0,-1,0],[9E+09,9E+09,9E+09,9E+09,9E+09,9E+09]];
	VAR robtarget Post_pick:=[[60.938329491,-1094.595312391,1792.582492837],[0,0.688481167,0.72525422,0],[-2,0,-1,0],[9E+09,9E+09,9E+09,9E+09,9E+09,9E+09]];
	VAR robtarget Target_40_2:=[[1491.333518219,-1035.974996515,1792.126827693],[0,0.688481168,0.725254219,0],[-1,-1,1,0],[9E+09,9E+09,9E+09,9E+09,9E+09,9E+09]];
	VAR robtarget Pre_Puntos:=[[1480.946382206,-28.568372857,1742.126827693],[0,0.688481168,0.725254219,0],[-1,-1,1,0],[9E+09,9E+09,9E+09,9E+09,9E+09,9E+09]];
	VAR robtarget Pre_Puntos_2:=[[1480.946382206,-28.568372857,1300],[0,0.688481168,0.725254219,0],[-1,-1,1,0],[9E+09,9E+09,9E+09,9E+09,9E+09,9E+09]];
    	VAR robtarget P11A_2:=[[2302,149.089,1500],[0.50131,0.49607,0.50885,0.49363],[-1,-1,1,1],[9E+09,9E+09,9E+09,9E+09,9E+09,9E+09]];
	VAR robtarget P11A:=[[2302,-1731,1500],[0.50131,0.49607,0.50885,0.49363],[-1,-1,1,1],[9E+09,9E+09,9E+09,9E+09,9E+09,9E+09]];
	VAR robtarget P21A_2:=[[2302,149.088599167,1385],[0.50131,0.49607,0.50885,0.49363],[-1,-1,1,1],[9E+09,9E+09,9E+09,9E+09,9E+09,9E+09]];
	VAR robtarget P21A:=[[2302,-1731,1385],[0.50131,0.49607,0.50885,0.49363],[-1,-1,1,1],[9E+09,9E+09,9E+09,9E+09,9E+09,9E+09]];
	VAR robtarget P21B_2:=[[2210,145.163415239,1385],[0.50131,0.49607,0.50885,0.49363],[-1,-1,1,1],[9E+09,9E+09,9E+09,9E+09,9E+09,9E+09]];
	VAR robtarget P21B:=[[2210,-1731,1385],[0.50131,0.49607,0.50885,0.49363],[-1,-1,1,1],[9E+09,9E+09,9E+09,9E+09,9E+09,9E+09]];
	VAR robtarget P22A_2:=[[2037,134.783363126,1385],[0.50131,0.49607,0.50885,0.49363],[-1,-1,1,1],[9E+09,9E+09,9E+09,9E+09,9E+09,9E+09]];
	VAR robtarget P22A:=[[2037,-1731,1385],[0.50131,0.49607,0.50885,0.49363],[-1,-1,1,1],[9E+09,9E+09,9E+09,9E+09,9E+09,9E+09]];
	VAR robtarget P22B_2:=[[1932,130.866889701,1385],[0.50131,0.49607,0.50885,0.49363],[-1,-1,1,1],[9E+09,9E+09,9E+09,9E+09,9E+09,9E+09]];
	VAR robtarget P22B:=[[1932,-1731,1385],[0.50131,0.49607,0.50885,0.49363],[-1,-1,1,1],[9E+09,9E+09,9E+09,9E+09,9E+09,9E+09]];
	VAR robtarget P23A_2:=[[1742,120.48683758,1385],[0.50131,0.49607,0.50885,0.49363],[0,0,1,1],[9E+09,9E+09,9E+09,9E+09,9E+09,9E+09]];
	VAR robtarget P23A_5:=[[1742,-823.252361961,1385],[0.50131,0.49607,0.50885,0.49363],[-1,-1,2,1],[9E+09,9E+09,9E+09,9E+09,9E+09,9E+09]];
	VAR robtarget P23A:=[[1742,-1731,1385],[0.50131,0.49607,0.50885,0.49363],[-1,-1,1,1],[9E+09,9E+09,9E+09,9E+09,9E+09,9E+09]];
	VAR robtarget P11A_2B:=[[2302,149.089,1490],[0.50131,0.49607,0.50885,0.49363],[-1,-1,1,1],[9E+09,9E+09,9E+09,9E+09,9E+09,9E+09]];
	VAR robtarget P11A_B:=[[2302,-1731,1490],[0.50131,0.49607,0.50885,0.49363],[-1,-1,1,1],[9E+09,9E+09,9E+09,9E+09,9E+09,9E+09]];
	VAR robtarget P21A_2B:=[[2302,149.088599167,1381],[0.495795153,0.501708655,0.503256953,0.499207403],[-1,-1,1,1],[9E+09,9E+09,9E+09,9E+09,9E+09,9E+09]];
	VAR robtarget P21A_B:=[[2302,-1731,1381],[0.495795153,0.501708655,0.503256953,0.499207403],[-1,-1,1,1],[9E+09,9E+09,9E+09,9E+09,9E+09,9E+09]];
	VAR robtarget P21B_2B:=[[2210,145.163415239,1381],[0.495795153,0.501708655,0.503256953,0.499207403],[-1,-1,1,1],[9E+09,9E+09,9E+09,9E+09,9E+09,9E+09]];
	VAR robtarget P21B_B:=[[2210,-1731,1381],[0.495795153,0.501708655,0.503256953,0.499207403],[-1,-1,1,1],[9E+09,9E+09,9E+09,9E+09,9E+09,9E+09]];
	VAR robtarget P22A_2B:=[[2037,134.783363126,1381],[0.495795153,0.501708655,0.503256953,0.499207403],[-1,-1,1,1],[9E+09,9E+09,9E+09,9E+09,9E+09,9E+09]];
	VAR robtarget P22A_B:=[[2037,-1731,1381],[0.495795153,0.501708655,0.503256953,0.499207403],[-1,-1,1,1],[9E+09,9E+09,9E+09,9E+09,9E+09,9E+09]];
	VAR robtarget P22B_2B:=[[1932,130.866889701,1381],[0.495795153,0.501708655,0.503256953,0.499207403],[-1,-1,1,1],[9E+09,9E+09,9E+09,9E+09,9E+09,9E+09]];
	VAR robtarget P22B_B:=[[1932,-1731,1381],[0.495795153,0.501708655,0.503256953,0.499207403],[-1,-1,1,1],[9E+09,9E+09,9E+09,9E+09,9E+09,9E+09]];
	VAR robtarget P23A_2B:=[[1742,120.48683758,1381],[0.495795153,0.501708655,0.503256953,0.499207403],[0,0,1,1],[9E+09,9E+09,9E+09,9E+09,9E+09,9E+09]];
	VAR robtarget P23A_B:=[[1742,-1731,1381],[0.495795153,0.501708655,0.503256953,0.499207403],[-1,-1,1,1],[9E+09,9E+09,9E+09,9E+09,9E+09,9E+09]];
    	VAR robtarget P23A_5B:=[[1742,-823.252361961,1381],[0.495795153,0.501708655,0.503256953,0.499207403],[-1,-1,2,1],[9E+09,9E+09,9E+09,9E+09,9E+09,9E+09]];
	VAR robtarget P23B_2:=[[1637,116.570364171,1385],[0.495795153,0.501708655,0.503256953,0.499207403],[0,0,1,1],[9E+09,9E+09,9E+09,9E+09,9E+09,9E+09]];
	VAR robtarget P23B_5:=[[1637,-545.927416055,1385],[0.495795153,0.501708655,0.503256953,0.499207403],[-1,-1,2,1],[9E+09,9E+09,9E+09,9E+09,9E+09,9E+09]];
	VAR robtarget P23B:=[[1637,-1731,1385],[0.495795153,0.501708655,0.503256953,0.499207403],[-1,-1,1,1],[9E+09,9E+09,9E+09,9E+09,9E+09,9E+09]];
    	VAR robtarget P23B_2B:=[[1637,116.570364171,1380],[0.495795153,0.501708655,0.503256953,0.499207403],[0,0,1,1],[9E+09,9E+09,9E+09,9E+09,9E+09,9E+09]];
	VAR robtarget P23B_5B:=[[1637,-545.927416055,1380],[0.495795153,0.501708655,0.503256953,0.499207403],[-1,-1,2,1],[9E+09,9E+09,9E+09,9E+09,9E+09,9E+09]];
	VAR robtarget P23B_B:=[[1637,-1731,1380],[0.495795153,0.501708655,0.503256953,0.499207403],[-1,-1,1,1],[9E+09,9E+09,9E+09,9E+09,9E+09,9E+09]];
    	VAR robtarget P24A_2:=[[1465,103.755616346,1400],[0,0.697269293,0.716809272,0],[-1,0,1,0],[9E+09,9E+09,9E+09,9E+09,9E+09,9E+09]];
	VAR robtarget P24A:=[[1465,-1731,1400],[0,0.697269293,0.716809272,0],[-1,0,1,0],[9E+09,9E+09,9E+09,9E+09,9E+09,9E+09]];
	VAR robtarget P24B_2:=[[1360,99.572237713,1400],[0,0.697269293,0.716809272,0],[-1,0,1,0],[9E+09,9E+09,9E+09,9E+09,9E+09,9E+09]];
	VAR robtarget P24B:=[[1360,-1731,1410],[0,0.697269293,0.716809272,0],[-1,0,1,0],[9E+09,9E+09,9E+09,9E+09,9E+09,9E+09]];
	VAR robtarget P25A_2:=[[1190,89.459090808,1400],[0,0.697269293,0.716809272,0],[-1,0,1,0],[9E+09,9E+09,9E+09,9E+09,9E+09,9E+09]];
	VAR robtarget P25A:=[[1190,-1731,1400],[0,0.697269293,0.716809272,0],[-1,0,1,0],[9E+09,9E+09,9E+09,9E+09,9E+09,9E+09]];
	VAR robtarget P25B_2:=[[1085,85.533906904,1400],[0,0.697269293,0.716809272,0],[-1,0,1,0],[9E+09,9E+09,9E+09,9E+09,9E+09,9E+09]];
	VAR robtarget P25B:=[[1085,-1731,1400],[0,0.697269293,0.716809272,0],[-1,0,1,0],[9E+09,9E+09,9E+09,9E+09,9E+09,9E+09]];
	VAR robtarget P26A_2:=[[905,75.153854757,1400],[0,0.697269293,0.716809272,0],[0,-1,2,0],[9E+09,9E+09,9E+09,9E+09,9E+09,9E+09]];
	VAR robtarget P26A_5:=[[905,-927.736321427,1400],[0,0.697269293,0.716809272,0],[-1,0,0,0],[9E+09,9E+09,9E+09,9E+09,9E+09,9E+09]];
	VAR robtarget P26A:=[[905,-1731,1400],[0,0.697269293,0.716809272,0],[-1,0,1,0],[9E+09,9E+09,9E+09,9E+09,9E+09,9E+09]];
	VAR robtarget P26B_2:=[[800,71.241658661,1400],[0,0.697269293,0.716809272,0],[0,-1,2,0],[9E+09,9E+09,9E+09,9E+09,9E+09,9E+09]];
	VAR robtarget P26B_5:=[[800,-931.648517523,1400],[0,0.697269293,0.716809272,0],[-1,0,0,0],[9E+09,9E+09,9E+09,9E+09,9E+09,9E+09]];
	VAR robtarget P26B:=[[800,-1731,1400],[0,0.697269293,0.716809272,0],[-1,0,1,0],[9E+09,9E+09,9E+09,9E+09,9E+09,9E+09]];
	VAR robtarget P31A_2:=[[2302,149.088599167,1265],[0.50131,0.49607,0.50885,0.49363],[-1,-1,1,1],[9E+09,9E+09,9E+09,9E+09,9E+09,9E+09]];
	VAR robtarget P31A:=[[2302,-1731,1265],[0.50131,0.49607,0.50885,0.49363],[-1,-1,1,1],[9E+09,9E+09,9E+09,9E+09,9E+09,9E+09]];
	VAR robtarget P31B_2:=[[2210,145.163415239,1265],[0.50131,0.49607,0.50885,0.49363],[-1,-1,1,1],[9E+09,9E+09,9E+09,9E+09,9E+09,9E+09]];
	VAR robtarget P31B:=[[2210,-1731,1265],[0.50131,0.49607,0.50885,0.49363],[-1,-1,1,1],[9E+09,9E+09,9E+09,9E+09,9E+09,9E+09]];
	VAR robtarget P32A_2:=[[2037,134.783363126,1265],[0.50131,0.49607,0.50885,0.49363],[-1,-1,1,1],[9E+09,9E+09,9E+09,9E+09,9E+09,9E+09]];
	VAR robtarget P32A:=[[2037,-1731,1265],[0.50131,0.49607,0.50885,0.49363],[-1,-1,1,1],[9E+09,9E+09,9E+09,9E+09,9E+09,9E+09]];
	VAR robtarget P32B_2:=[[1932,130.866889701,1265],[0.50131,0.49607,0.50885,0.49363],[-1,-1,1,1],[9E+09,9E+09,9E+09,9E+09,9E+09,9E+09]];
	VAR robtarget P32B:=[[1932,-1731,1265],[0.50131,0.49607,0.50885,0.49363],[-1,-1,1,1],[9E+09,9E+09,9E+09,9E+09,9E+09,9E+09]];
	VAR robtarget P33A_2:=[[1742,120.486837581,1265],[0.50131,0.49607,0.50885,0.49363],[0,0,1,1],[9E+09,9E+09,9E+09,9E+09,9E+09,9E+09]];
	VAR robtarget P33A_5:=[[1742,-823.25236196,1265],[0.50131,0.49607,0.50885,0.49363],[0,0,1,1],[9E+09,9E+09,9E+09,9E+09,9E+09,9E+09]];
	VAR robtarget P33A:=[[1742,-1731,1265],[0.50131,0.49607,0.50885,0.49363],[-1,-1,2,1],[9E+09,9E+09,9E+09,9E+09,9E+09,9E+09]];
	VAR robtarget P33B_2:=[[1637,116.570364174,1265],[0.50131,0.49607,0.50885,0.49363],[0,0,1,1],[9E+09,9E+09,9E+09,9E+09,9E+09,9E+09]];
	VAR robtarget P33B_5:=[[1637,-827.168835367,1265],[0.50131,0.49607,0.50885,0.49363],[0,0,1,1],[9E+09,9E+09,9E+09,9E+09,9E+09,9E+09]];
	VAR robtarget P33B:=[[1637,-1731,1265],[0.50131,0.49607,0.50885,0.49363],[-1,-1,2,1],[9E+09,9E+09,9E+09,9E+09,9E+09,9E+09]];
	VAR robtarget P34A_2:=[[1465,103.755616346,1280],[0,0.697269293,0.716809272,0],[-1,0,1,0],[9E+09,9E+09,9E+09,9E+09,9E+09,9E+09]];
	VAR robtarget P34A:=[[1465,-1731,1280],[0,0.697269293,0.716809272,0],[-1,0,1,0],[9E+09,9E+09,9E+09,9E+09,9E+09,9E+09]];
	VAR robtarget P34B_2:=[[1360,99.830432442,1280],[0,0.697269293,0.716809272,0],[-1,0,1,0],[9E+09,9E+09,9E+09,9E+09,9E+09,9E+09]];
	VAR robtarget P34B:=[[1360,-1731,1280],[0,0.697269293,0.716809272,0],[-1,0,1,0],[9E+09,9E+09,9E+09,9E+09,9E+09,9E+09]];
	VAR robtarget P35A_2:=[[1190,89.459090808,1280],[0,0.697269293,0.716809272,0],[-1,0,1,0],[9E+09,9E+09,9E+09,9E+09,9E+09,9E+09]];
	VAR robtarget P35A:=[[1190,-1731,1280],[0,0.697269293,0.716809272,0],[-1,0,1,0],[9E+09,9E+09,9E+09,9E+09,9E+09,9E+09]];
	VAR robtarget P35B_2:=[[1085,85.533906904,1280],[0,0.697269293,0.716809272,0],[-1,0,1,0],[9E+09,9E+09,9E+09,9E+09,9E+09,9E+09]];
	VAR robtarget P35B:=[[1085,-1731,1280],[0,0.697269293,0.716809272,0],[-1,0,1,0],[9E+09,9E+09,9E+09,9E+09,9E+09,9E+09]];
	VAR robtarget P36A_2:=[[905,75.153854757,1280],[0,0.697269293,0.716809272,0],[0,-1,2,0],[9E+09,9E+09,9E+09,9E+09,9E+09,9E+09]];
	VAR robtarget P36A_5:=[[905,-927.736321427,1280],[0,0.697269293,0.716809272,0],[-1,0,0,0],[9E+09,9E+09,9E+09,9E+09,9E+09,9E+09]];
	VAR robtarget P36A:=[[905,-1731,1280],[0,0.697269293,0.716809272,0],[-1,0,1,0],[9E+09,9E+09,9E+09,9E+09,9E+09,9E+09]];
	VAR robtarget P36B_2:=[[800,71.241187764,1280],[0,0.697269293,0.716809272,0],[0,-1,2,0],[9E+09,9E+09,9E+09,9E+09,9E+09,9E+09]];
	VAR robtarget P36B_5:=[[800,-931.64898842,1280],[0,0.697269293,0.716809272,0],[-1,0,0,0],[9E+09,9E+09,9E+09,9E+09,9E+09,9E+09]];
	VAR robtarget P36B:=[[800,-1731,1280],[0,0.697269293,0.716809272,0],[-1,0,1,0],[9E+09,9E+09,9E+09,9E+09,9E+09,9E+09]];
	VAR robtarget P41A_2:=[[2302,149.088599167,1145],[0.50131,0.49607,0.50885,0.49363],[-1,-1,1,1],[9E+09,9E+09,9E+09,9E+09,9E+09,9E+09]];
	VAR robtarget P41A:=[[2302,-1731,1145],[0.50131,0.49607,0.50885,0.49363],[-1,-1,1,1],[9E+09,9E+09,9E+09,9E+09,9E+09,9E+09]];
	VAR robtarget P41B_2:=[[2210,145.163415239,1145],[0.50131,0.49607,0.50885,0.49363],[-1,-1,1,1],[9E+09,9E+09,9E+09,9E+09,9E+09,9E+09]];
	VAR robtarget P41B:=[[2210,-1731,1145],[0.50131,0.49607,0.50885,0.49363],[-1,-1,1,1],[9E+09,9E+09,9E+09,9E+09,9E+09,9E+09]];
	VAR robtarget P42A_2:=[[2037,134.783363126,1145],[0.50131,0.49607,0.50885,0.49363],[-1,-1,1,1],[9E+09,9E+09,9E+09,9E+09,9E+09,9E+09]];
	VAR robtarget P42A:=[[2037,-1731,1145],[0.50131,0.49607,0.50885,0.49363],[-1,-1,1,1],[9E+09,9E+09,9E+09,9E+09,9E+09,9E+09]];
	VAR robtarget P42B_2:=[[1932,130.866889697,1145],[0.50131,0.49607,0.50885,0.49363],[0,0,1,1],[9E+09,9E+09,9E+09,9E+09,9E+09,9E+09]];
	VAR robtarget P42B:=[[1932.976626067,-1731,1145],[0.50131,0.49607,0.50885,0.49363],[-1,-1,2,1],[9E+09,9E+09,9E+09,9E+09,9E+09,9E+09]];
	VAR robtarget P43A_2:=[[1770,120.486837573,1160],[0,0.697269293,0.716809272,0],[-1,0,1,0],[9E+09,9E+09,9E+09,9E+09,9E+09,9E+09]];
	VAR robtarget P43A:=[[1770,-1731,1160],[0,0.697269293,0.716809272,0],[-1,0,1,0],[9E+09,9E+09,9E+09,9E+09,9E+09,9E+09]];
	VAR robtarget P43B_2:=[[1655,116.570364164,1160],[0,0.697269293,0.716809272,0],[-1,0,1,0],[9E+09,9E+09,9E+09,9E+09,9E+09,9E+09]];
	VAR robtarget P43B:=[[1655,-1731,1160],[0,0.697269293,0.716809272,0],[-1,0,1,0],[9E+09,9E+09,9E+09,9E+09,9E+09,9E+09]];
	VAR robtarget P44A_2:=[[1465,103.755616346,1160],[0,0.697269293,0.716809272,0],[-1,0,1,0],[9E+09,9E+09,9E+09,9E+09,9E+09,9E+09]];
	VAR robtarget P44A:=[[1465,-1731,1160],[0,0.697269293,0.716809272,0],[-1,0,1,0],[9E+09,9E+09,9E+09,9E+09,9E+09,9E+09]];
	VAR robtarget P44B_2:=[[1360,99.830432442,1160],[0,0.697269293,0.716809272,0],[-1,0,1,0],[9E+09,9E+09,9E+09,9E+09,9E+09,9E+09]];
	VAR robtarget P44B:=[[1360,-1731,1160],[0,0.697269293,0.716809272,0],[-1,0,1,0],[9E+09,9E+09,9E+09,9E+09,9E+09,9E+09]];
	VAR robtarget P45A_2:=[[1160.204463797,89.459090808,1160],[0,0.697269293,0.716809272,0],[-1,0,1,0],[9E+09,9E+09,9E+09,9E+09,9E+09,9E+09]];
	VAR robtarget P45A:=[[1190,-1731,1160],[0,0.697269293,0.716809272,0],[-1,0,1,0],[9E+09,9E+09,9E+09,9E+09,9E+09,9E+09]];
	VAR robtarget P45B_2:=[[1085,85.533906904,1160],[0,0.697269293,0.716809272,0],[-1,0,1,0],[9E+09,9E+09,9E+09,9E+09,9E+09,9E+09]];
	VAR robtarget P45B:=[[1085,-1731,1160],[0,0.697269293,0.716809272,0],[-1,0,1,0],[9E+09,9E+09,9E+09,9E+09,9E+09,9E+09]];
	VAR robtarget P46A_2:=[[890,75.153854777,1160],[0.263518748,-0.636190535,-0.66993656,0.277496809],[-1,0,1,0],[9E+09,9E+09,9E+09,9E+09,9E+09,9E+09]];
	VAR robtarget P46A:=[[895,-1731,1160],[0,0.697269293,0.716809272,0],[-1,0,1,0],[9E+09,9E+09,9E+09,9E+09,9E+09,9E+09]];
	VAR robtarget P46B_2:=[[770,71.241658681,1160],[0.263518748,-0.636190535,-0.66993656,0.277496809],[-1,0,1,0],[9E+09,9E+09,9E+09,9E+09,9E+09,9E+09]];
	VAR robtarget P46B:=[[770,-1731,1160],[0,0.697269293,0.716809272,0],[-1,0,1,0],[9E+09,9E+09,9E+09,9E+09,9E+09,9E+09]];
	VAR robtarget P11B_2:=[[2200,145.163415239,1500],[0.50131,0.49607,0.50885,0.49363],[-1,-1,1,1],[9E+09,9E+09,9E+09,9E+09,9E+09,9E+09]];
	VAR robtarget P11B:=[[2200,-1731,1500],[0.50131,0.49607,0.50885,0.49363],[-1,-1,1,1],[9E+09,9E+09,9E+09,9E+09,9E+09,9E+09]];
	VAR robtarget P11B_2B:=[[2200,145.163415239,1490],[0.495795153,0.501708655,0.503256953,0.499207403],[-1,-1,1,1],[9E+09,9E+09,9E+09,9E+09,9E+09,9E+09]];
	VAR robtarget P11B_B:=[[2200,-1731,1490],[0.495795153,0.501708655,0.503256953,0.499207403],[-1,-1,1,1],[9E+09,9E+09,9E+09,9E+09,9E+09,9E+09]];
    	VAR robtarget P51A_2:=[[2302,149.088599167,1025],[0.50131,0.49607,0.50885,0.49363],[-1,-1,1,1],[9E+09,9E+09,9E+09,9E+09,9E+09,9E+09]];
	VAR robtarget P51A:=[[2302,-1731,1025],[0.50131,0.49607,0.50885,0.49363],[-1,-1,1,1],[9E+09,9E+09,9E+09,9E+09,9E+09,9E+09]];
	VAR robtarget P143B_2:=[[1655,75.570364164,-40],[0,0.697269293,0.716809272,0],[0,-1,2,0],[9E+09,9E+09,9E+09,9E+09,9E+09,9E+09]];
	VAR robtarget P143B:=[[1655,-1731,-40],[0,0.697269293,0.716809272,0],[-1,-1,1,0],[9E+09,9E+09,9E+09,9E+09,9E+09,9E+09]];
	VAR robtarget P133B_2:=[[1655,75.570364164,80],[0,0.697269293,0.716809272,0],[0,-1,2,0],[9E+09,9E+09,9E+09,9E+09,9E+09,9E+09]];
	VAR robtarget P133B:=[[1655,-1731,80],[0,0.697269293,0.716809272,0],[-1,-1,1,0],[9E+09,9E+09,9E+09,9E+09,9E+09,9E+09]];
	VAR robtarget P123B_2:=[[1655,75.570364164,200],[0,0.697269293,0.716809272,0],[0,-1,2,0],[9E+09,9E+09,9E+09,9E+09,9E+09,9E+09]];
	VAR robtarget P123B:=[[1655,-1731,200],[0,0.697269293,0.716809272,0],[-1,-1,1,0],[9E+09,9E+09,9E+09,9E+09,9E+09,9E+09]];
	VAR robtarget P113B_2:=[[1655,75.570364164,320],[0,0.697269293,0.716809272,0],[0,-1,2,0],[9E+09,9E+09,9E+09,9E+09,9E+09,9E+09]];
	VAR robtarget P113B:=[[1655,-1731,320],[0,0.697269293,0.716809272,0],[-1,-1,1,0],[9E+09,9E+09,9E+09,9E+09,9E+09,9E+09]];
	VAR robtarget P103B_2:=[[1655,75.570364164,440],[0,0.697269293,0.716809272,0],[0,-1,2,0],[9E+09,9E+09,9E+09,9E+09,9E+09,9E+09]];
	VAR robtarget P103B:=[[1655,-1731,440],[0,0.697269293,0.716809272,0],[-1,-1,1,0],[9E+09,9E+09,9E+09,9E+09,9E+09,9E+09]];
	VAR robtarget P93B_2:=[[1655,75.570364164,560],[0,0.697269293,0.716809272,0],[0,-1,2,0],[9E+09,9E+09,9E+09,9E+09,9E+09,9E+09]];
	VAR robtarget P93B:=[[1655,-1731,560],[0,0.697269293,0.716809272,0],[-1,-1,1,0],[9E+09,9E+09,9E+09,9E+09,9E+09,9E+09]];
	VAR robtarget P76B_2:=[[770,71.241658685,800],[0.263518748,-0.636190535,-0.66993656,0.277496809],[-1,0,1,0],[9E+09,9E+09,9E+09,9E+09,9E+09,9E+09]];
	VAR robtarget P76B:=[[770,-1731,800],[0,0.697269293,0.716809272,0],[-1,-1,1,0],[9E+09,9E+09,9E+09,9E+09,9E+09,9E+09]];
	VAR robtarget P66B_2:=[[770,71.241658681,920],[0.263518748,-0.636190535,-0.66993656,0.277496809],[0,-1,2,0],[9E+09,9E+09,9E+09,9E+09,9E+09,9E+09]];
	VAR robtarget P66B:=[[770,-1731,920],[0,0.697269293,0.716809272,0],[-1,-1,1,0],[9E+09,9E+09,9E+09,9E+09,9E+09,9E+09]];
	VAR robtarget P56B_2:=[[770,71.241658681,1040],[0.263518748,-0.636190535,-0.66993656,0.277496809],[-1,0,1,0],[9E+09,9E+09,9E+09,9E+09,9E+09,9E+09]];
	VAR robtarget P56B:=[[770,-1731,1040],[0,0.697269293,0.716809272,0],[-1,0,1,0],[9E+09,9E+09,9E+09,9E+09,9E+09,9E+09]];
	VAR robtarget P143A_2:=[[1770,75.486837573,-40],[0,0.697269293,0.716809272,0],[0,-1,2,0],[9E+09,9E+09,9E+09,9E+09,9E+09,9E+09]];
	VAR robtarget P143A:=[[1770,-1731,-40],[0,0.697269293,0.716809272,0],[-1,-1,1,0],[9E+09,9E+09,9E+09,9E+09,9E+09,9E+09]];
	VAR robtarget P133A_2:=[[1770,75.486837573,80],[0,0.697269293,0.716809272,0],[0,-1,2,0],[9E+09,9E+09,9E+09,9E+09,9E+09,9E+09]];
	VAR robtarget P133A:=[[1770,-1731,80],[0,0.697269293,0.716809272,0],[-1,-1,1,0],[9E+09,9E+09,9E+09,9E+09,9E+09,9E+09]];
	VAR robtarget P123A_2:=[[1770,75.486837573,200],[0,0.697269293,0.716809272,0],[0,-1,2,0],[9E+09,9E+09,9E+09,9E+09,9E+09,9E+09]];
	VAR robtarget P123A:=[[1770,-1731,200],[0,0.697269293,0.716809272,0],[-1,-1,1,0],[9E+09,9E+09,9E+09,9E+09,9E+09,9E+09]];
	VAR robtarget P113A_2:=[[1770,75.486837573,320],[0,0.697269293,0.716809272,0],[0,-1,2,0],[9E+09,9E+09,9E+09,9E+09,9E+09,9E+09]];
	VAR robtarget P113A:=[[1770,-1731,320],[0,0.697269293,0.716809272,0],[-1,-1,1,0],[9E+09,9E+09,9E+09,9E+09,9E+09,9E+09]];
	VAR robtarget P103A_2:=[[1770,75.486837573,440],[0,0.697269293,0.716809272,0],[0,-1,2,0],[9E+09,9E+09,9E+09,9E+09,9E+09,9E+09]];
	VAR robtarget P103A:=[[1770,-1731,440],[0,0.697269293,0.716809272,0],[-1,-1,1,0],[9E+09,9E+09,9E+09,9E+09,9E+09,9E+09]];
	VAR robtarget P93A_2:=[[1770,75.486837573,560],[0,0.697269293,0.716809272,0],[0,-1,2,0],[9E+09,9E+09,9E+09,9E+09,9E+09,9E+09]];
	VAR robtarget P93A:=[[1770,-1731,560],[0,0.697269293,0.716809272,0],[-1,-1,1,0],[9E+09,9E+09,9E+09,9E+09,9E+09,9E+09]];
	VAR robtarget P83B_2:=[[1655,116.570364164,680],[0,0.697269293,0.716809272,0],[0,-1,2,0],[9E+09,9E+09,9E+09,9E+09,9E+09,9E+09]];
	VAR robtarget P83B:=[[1655,-1731,680],[0,0.697269293,0.716809272,0],[-1,-1,1,0],[9E+09,9E+09,9E+09,9E+09,9E+09,9E+09]];
	VAR robtarget P76A_2:=[[890,75.153854777,800],[0.263518748,-0.636190535,-0.66993656,0.277496809],[0,-1,2,0],[9E+09,9E+09,9E+09,9E+09,9E+09,9E+09]];
	VAR robtarget P76A:=[[895,-1731,800],[0,0.697269293,0.716809272,0],[-1,-1,1,0],[9E+09,9E+09,9E+09,9E+09,9E+09,9E+09]];
	VAR robtarget P66A_2:=[[890,75.153854777,920],[0.263518748,-0.636190535,-0.66993656,0.277496809],[0,-1,2,0],[9E+09,9E+09,9E+09,9E+09,9E+09,9E+09]];
	VAR robtarget P66A:=[[895,-1731,920],[0,0.697269293,0.716809272,0],[-1,-1,1,0],[9E+09,9E+09,9E+09,9E+09,9E+09,9E+09]];
	VAR robtarget P56A_2:=[[890,75.153854777,1040],[0.263518748,-0.636190535,-0.66993656,0.277496809],[0,-1,2,0],[9E+09,9E+09,9E+09,9E+09,9E+09,9E+09]];
	VAR robtarget P56A:=[[895,-1731,1040],[0,0.697269293,0.716809272,0],[-1,-1,1,0],[9E+09,9E+09,9E+09,9E+09,9E+09,9E+09]];
	VAR robtarget P146B_2:=[[760,71.241658667,-40],[0.17822478,-0.665143936,-0.700425761,0.187678518],[-1,-1,1,0],[9E+09,9E+09,9E+09,9E+09,9E+09,9E+09]];
	VAR robtarget P146B:=[[760,-1731,-40],[0,0.697269293,0.716809272,0],[-1,-1,1,0],[9E+09,9E+09,9E+09,9E+09,9E+09,9E+09]];
	VAR robtarget P55B_2:=[[1085,85.533906904,1040],[0,0.697269293,0.716809272,0],[0,-1,2,0],[9E+09,9E+09,9E+09,9E+09,9E+09,9E+09]];
	VAR robtarget P55B:=[[1085,-1731,1040],[0,0.697269293,0.716809272,0],[-1,-1,1,0],[9E+09,9E+09,9E+09,9E+09,9E+09,9E+09]];
	VAR robtarget P53A_2:=[[1770,120.486837573,1040],[0,0.697269293,0.716809272,0],[0,-1,2,0],[9E+09,9E+09,9E+09,9E+09,9E+09,9E+09]];
	VAR robtarget P53A:=[[1770,-1731,1040],[0,0.697269293,0.716809272,0],[-1,-1,1,0],[9E+09,9E+09,9E+09,9E+09,9E+09,9E+09]];
	VAR robtarget P65B_2:=[[1085,85.533906904,920],[0,0.697269293,0.716809272,0],[-1,-1,1,0],[9E+09,9E+09,9E+09,9E+09,9E+09,9E+09]];
	VAR robtarget P65B:=[[1085,-1731,920],[0,0.697269293,0.716809272,0],[-1,-1,1,0],[9E+09,9E+09,9E+09,9E+09,9E+09,9E+09]];
	VAR robtarget P63A_2:=[[1770,120.486837573,920],[0,0.697269293,0.716809272,0],[0,-1,2,0],[9E+09,9E+09,9E+09,9E+09,9E+09,9E+09]];
	VAR robtarget P63A:=[[1770,-1731,920],[0,0.697269293,0.716809272,0],[-1,-1,1,0],[9E+09,9E+09,9E+09,9E+09,9E+09,9E+09]];
	VAR robtarget P75B_2:=[[1085,85.533906904,800],[0,0.697269293,0.716809272,0],[0,-1,2,0],[9E+09,9E+09,9E+09,9E+09,9E+09,9E+09]];
	VAR robtarget P75B:=[[1085,-1731,800],[0,0.697269293,0.716809272,0],[-1,-1,1,0],[9E+09,9E+09,9E+09,9E+09,9E+09,9E+09]];
	VAR robtarget P73A_2:=[[1770,120.486837573,800],[0,0.697269293,0.716809272,0],[0,-1,2,0],[9E+09,9E+09,9E+09,9E+09,9E+09,9E+09]];
	VAR robtarget P73A:=[[1770,-1731,800],[0,0.697269293,0.716809272,0],[-1,-1,1,0],[9E+09,9E+09,9E+09,9E+09,9E+09,9E+09]];
	VAR robtarget P83A_2:=[[1770,120.486837573,680],[0,0.697269293,0.716809272,0],[0,-1,2,0],[9E+09,9E+09,9E+09,9E+09,9E+09,9E+09]];
	VAR robtarget P83A:=[[1770,-1731,680],[0,0.697269293,0.716809272,0],[-1,-1,1,0],[9E+09,9E+09,9E+09,9E+09,9E+09,9E+09]];
	VAR robtarget P86A_2:=[[890,75.153854777,680],[0.263518748,-0.636190535,-0.66993656,0.277496809],[0,-1,2,0],[9E+09,9E+09,9E+09,9E+09,9E+09,9E+09]];
	VAR robtarget P86A:=[[895,-1731,680],[0,0.697269293,0.716809272,0],[-1,-1,1,0],[9E+09,9E+09,9E+09,9E+09,9E+09,9E+09]];
	VAR robtarget P92B_2:=[[1935,80,560],[0,0.697269293,0.716809272,0],[0,-1,2,0],[9E+09,9E+09,9E+09,9E+09,9E+09,9E+09]];
	VAR robtarget P92B:=[[1935,-1731,560],[0,0.697269293,0.716809272,0],[-1,-1,1,0],[9E+09,9E+09,9E+09,9E+09,9E+09,9E+09]];
	VAR robtarget P102B_2:=[[1935,80,440],[0,0.697269293,0.716809272,0],[0,-1,2,0],[9E+09,9E+09,9E+09,9E+09,9E+09,9E+09]];
	VAR robtarget P102B:=[[1935,-1731,440],[0,0.697269293,0.716809272,0],[-1,-1,1,0],[9E+09,9E+09,9E+09,9E+09,9E+09,9E+09]];
	VAR robtarget P96A_2:=[[886.3193285,75.153854761,542],[0.46233,-0.51981,-0.53978,0.47401],[0,-1,2,0],[9E+09,9E+09,9E+09,9E+09,9E+09,9E+09]];
	VAR robtarget P96A:=[[886.3193285,-1731,542],[0.46233,-0.51981,-0.53978,0.47401],[-1,-1,1,0],[9E+09,9E+09,9E+09,9E+09,9E+09,9E+09]];
	VAR robtarget P96A_2B:=[[886.3193285,75.153854761,540],[0.46233,-0.51981,-0.53978,0.47401],[0,-1,2,0],[9E+09,9E+09,9E+09,9E+09,9E+09,9E+09]];
	VAR robtarget P96A_B:=[[886.3193285,-1731,540],[0.46233,-0.51981,-0.53978,0.47401],[-1,-1,1,0],[9E+09,9E+09,9E+09,9E+09,9E+09,9E+09]];
	VAR robtarget P122B_2:=[[1935,75.866889702,200],[0,0.697269293,0.716809272,0],[0,-1,2,0],[9E+09,9E+09,9E+09,9E+09,9E+09,9E+09]];
	VAR robtarget P122B:=[[1935,-1731,200],[0,0.697269293,0.716809272,0],[-1,-1,1,0],[9E+09,9E+09,9E+09,9E+09,9E+09,9E+09]];
	VAR robtarget P112B_2:=[[1935,75.866889702,320],[0,0.697269293,0.716809272,0],[0,-1,2,0],[9E+09,9E+09,9E+09,9E+09,9E+09,9E+09]];
	VAR robtarget P112B:=[[1935,-1731,320],[0,0.697269293,0.716809272,0],[-1,-1,1,0],[9E+09,9E+09,9E+09,9E+09,9E+09,9E+09]];
	VAR robtarget P106A_2:=[[880,75.153854794,440],[0.17822478,-0.665143936,-0.700425761,0.187678518],[0,0,2,0],[9E+09,9E+09,9E+09,9E+09,9E+09,9E+09]];
	VAR robtarget P106A:=[[880,-1731,440],[0,0.697269293,0.716809272,0],[-1,-1,1,0],[9E+09,9E+09,9E+09,9E+09,9E+09,9E+09]];
	VAR robtarget P116A_2:=[[865,75.153854794,320],[0.17822478,-0.665143936,-0.700425761,0.187678518],[0,0,2,0],[9E+09,9E+09,9E+09,9E+09,9E+09,9E+09]];
	VAR robtarget P116A:=[[885,-1731,320],[0,0.697269293,0.716809272,0],[-1,-1,1,0],[9E+09,9E+09,9E+09,9E+09,9E+09,9E+09]];
	VAR robtarget P132B_2:=[[1935,75.866889702,80],[0,0.697269293,0.716809272,0],[0,-1,2,0],[9E+09,9E+09,9E+09,9E+09,9E+09,9E+09]];
	VAR robtarget P132B:=[[1935,-1731,80],[0,0.697269293,0.716809272,0],[-1,-1,1,0],[9E+09,9E+09,9E+09,9E+09,9E+09,9E+09]];
	VAR robtarget P126A_2:=[[875,75.153854794,200],[0.17822478,-0.665143936,-0.700425761,0.187678518],[-1,-1,2,0],[9E+09,9E+09,9E+09,9E+09,9E+09,9E+09]];
	VAR robtarget P126A:=[[875,-1731,200],[0,0.697269293,0.716809272,0],[-1,-1,1,0],[9E+09,9E+09,9E+09,9E+09,9E+09,9E+09]];
	VAR robtarget P142B_2:=[[1900,75.866889702,-35],[0,0.697269293,0.716809272,0],[0,-1,2,0],[9E+09,9E+09,9E+09,9E+09,9E+09,9E+09]];
	VAR robtarget P142B:=[[1900,-1731,-35],[0,0.697269293,0.716809272,0],[-1,-1,1,0],[9E+09,9E+09,9E+09,9E+09,9E+09,9E+09]];
	VAR robtarget P136A_2:=[[875,75.153854794,80],[0.17822478,-0.665143936,-0.700425761,0.187678518],[-1,-1,2,0],[9E+09,9E+09,9E+09,9E+09,9E+09,9E+09]];
	VAR robtarget P136A:=[[875,-1731,80],[0,0.697269293,0.716809272,0],[-1,-1,1,0],[9E+09,9E+09,9E+09,9E+09,9E+09,9E+09]];
	VAR robtarget P146A_2:=[[875,75.153854794,-40],[0.17822478,-0.665143936,-0.700425761,0.187678518],[-1,-1,2,0],[9E+09,9E+09,9E+09,9E+09,9E+09,9E+09]];
	VAR robtarget P146A:=[[875,-1731,-40],[0,0.697269293,0.716809272,0],[-1,-1,1,0],[9E+09,9E+09,9E+09,9E+09,9E+09,9E+09]];
	VAR robtarget P52B_2:=[[1932,130.866889697,1025],[0.50131,0.49607,0.50885,0.49363],[0,0,1,1],[9E+09,9E+09,9E+09,9E+09,9E+09,9E+09]];
	VAR robtarget P52B:=[[1932,-1731,1025],[0.50131,0.49607,0.50885,0.49363],[-1,-1,2,1],[9E+09,9E+09,9E+09,9E+09,9E+09,9E+09]];
	VAR robtarget P54A_2:=[[1465,103.755616346,1040],[0,0.697269293,0.716809272,0],[0,-1,2,0],[9E+09,9E+09,9E+09,9E+09,9E+09,9E+09]];
	VAR robtarget P54A:=[[1465,-1731,1040],[0,0.697269293,0.716809272,0],[-1,-1,1,0],[9E+09,9E+09,9E+09,9E+09,9E+09,9E+09]];
	VAR robtarget P55A_2:=[[1190,89.459090808,1040],[0,0.697269293,0.716809272,0],[0,-1,2,0],[9E+09,9E+09,9E+09,9E+09,9E+09,9E+09]];
	VAR robtarget P55A:=[[1190,-1731,1040],[0,0.697269293,0.716809272,0],[-1,-1,1,0],[9E+09,9E+09,9E+09,9E+09,9E+09,9E+09]];
	VAR robtarget P51B_2:=[[2210,145.163415239,1025],[0.50131,0.49607,0.50885,0.49363],[-1,-1,1,1],[9E+09,9E+09,9E+09,9E+09,9E+09,9E+09]];
	VAR robtarget P51B:=[[2210,-1731,1025],[0.50131,0.49607,0.50885,0.49363],[-1,-1,1,1],[9E+09,9E+09,9E+09,9E+09,9E+09,9E+09]];
	VAR robtarget P62B_2:=[[1932,130.866889698,905],[0.50131,0.49607,0.50885,0.49363],[0,0,1,1],[9E+09,9E+09,9E+09,9E+09,9E+09,9E+09]];
	VAR robtarget P62B:=[[1932,-1731,905],[0.50131,0.49607,0.50885,0.49363],[-1,-1,2,1],[9E+09,9E+09,9E+09,9E+09,9E+09,9E+09]];
	VAR robtarget P65A_2:=[[1190,89.459090808,920],[0,0.697269293,0.716809272,0],[0,-1,2,0],[9E+09,9E+09,9E+09,9E+09,9E+09,9E+09]];
	VAR robtarget P65A:=[[1190,-1731,920],[0,0.697269293,0.716809272,0],[-1,-1,1,0],[9E+09,9E+09,9E+09,9E+09,9E+09,9E+09]];
	VAR robtarget P64A_2:=[[1465,103.755616346,920],[0,0.697269293,0.716809272,0],[0,-1,2,0],[9E+09,9E+09,9E+09,9E+09,9E+09,9E+09]];
	VAR robtarget P64A:=[[1456,-1731,920],[0,0.697269293,0.716809272,0],[-1,-1,1,0],[9E+09,9E+09,9E+09,9E+09,9E+09,9E+09]];
	VAR robtarget P61B_2:=[[2210,145.163415239,905],[0.50131,0.49607,0.50885,0.49363],[-1,-1,1,1],[9E+09,9E+09,9E+09,9E+09,9E+09,9E+09]];
	VAR robtarget P61B:=[[2210,-1731,905],[0.50131,0.49607,0.50885,0.49363],[-1,-1,1,1],[9E+09,9E+09,9E+09,9E+09,9E+09,9E+09]];
	VAR robtarget P72B_2:=[[1935,130.866889702,800],[0,0.697269293,0.716809272,0],[0,-1,2,0],[9E+09,9E+09,9E+09,9E+09,9E+09,9E+09]];
	VAR robtarget P72B:=[[1935,-1731,800],[0,0.697269293,0.716809272,0],[-1,-1,1,0],[9E+09,9E+09,9E+09,9E+09,9E+09,9E+09]];
	VAR robtarget P75A_2:=[[1190,89.459090808,800],[0,0.697269293,0.716809272,0],[0,-1,2,0],[9E+09,9E+09,9E+09,9E+09,9E+09,9E+09]];
	VAR robtarget P75A:=[[1190,-1731,800],[0,0.697269293,0.716809272,0],[-1,-1,1,0],[9E+09,9E+09,9E+09,9E+09,9E+09,9E+09]];
	VAR robtarget P74A_2:=[[1465,103.755616346,800],[0,0.697269293,0.716809272,0],[0,-1,2,0],[9E+09,9E+09,9E+09,9E+09,9E+09,9E+09]];
	VAR robtarget P74A:=[[1465,-1731,800],[0,0.697269293,0.716809272,0],[-1,-1,1,0],[9E+09,9E+09,9E+09,9E+09,9E+09,9E+09]];
	VAR robtarget P71B_2:=[[2210,145.163415239,785],[0.50131,0.49607,0.50885,0.49363],[-1,-1,1,1],[9E+09,9E+09,9E+09,9E+09,9E+09,9E+09]];
	VAR robtarget P71B:=[[2210,-1731,785],[0.50131,0.49607,0.50885,0.49363],[-1,-1,1,1],[9E+09,9E+09,9E+09,9E+09,9E+09,9E+09]];
	VAR robtarget P82B_2:=[[1935,130.866889702,680],[0,0.697269293,0.716809272,0],[0,-1,2,0],[9E+09,9E+09,9E+09,9E+09,9E+09,9E+09]];
	VAR robtarget P82B:=[[1935,-1731,680],[0,0.697269293,0.716809272,0],[-1,-1,1,0],[9E+09,9E+09,9E+09,9E+09,9E+09,9E+09]];
	VAR robtarget P81B_2:=[[2210,145.163415239,665],[0.50131,0.49607,0.50885,0.49363],[-1,-1,1,1],[9E+09,9E+09,9E+09,9E+09,9E+09,9E+09]];
	VAR robtarget P81B:=[[2210,-1731,665],[0.50131,0.49607,0.50885,0.49363],[-1,-1,1,1],[9E+09,9E+09,9E+09,9E+09,9E+09,9E+09]];
	VAR robtarget P85B_2:=[[1085,85.533906904,680],[0,0.697269293,0.716809272,0],[0,-1,2,0],[9E+09,9E+09,9E+09,9E+09,9E+09,9E+09]];
	VAR robtarget P85B:=[[1085,-1731,680],[0,0.697269293,0.716809272,0],[-1,-1,1,0],[9E+09,9E+09,9E+09,9E+09,9E+09,9E+09]];
	VAR robtarget P92A_2:=[[2037,40,545],[0.50131,0.49607,0.50885,0.49363],[0,0,1,1],[9E+09,9E+09,9E+09,9E+09,9E+09,9E+09]];
	VAR robtarget P92A:=[[2037,-1731,545],[0.50131,0.49607,0.50885,0.49363],[-1,-1,2,1],[9E+09,9E+09,9E+09,9E+09,9E+09,9E+09]];
	VAR robtarget P91A_2:=[[2302,75.088599167,545],[0.50131,0.49607,0.50885,0.49363],[-1,-1,1,1],[9E+09,9E+09,9E+09,9E+09,9E+09,9E+09]];
	VAR robtarget P91A:=[[2302,-1731,545],[0.50131,0.49607,0.50885,0.49363],[-1,-1,1,1],[9E+09,9E+09,9E+09,9E+09,9E+09,9E+09]];
	VAR robtarget P84B_2:=[[1360,99.830432442,680],[0,0.697269293,0.716809272,0],[0,-1,2,0],[9E+09,9E+09,9E+09,9E+09,9E+09,9E+09]];
	VAR robtarget P84B:=[[1360,-1731,680],[0,0.697269293,0.716809272,0],[-1,-1,1,0],[9E+09,9E+09,9E+09,9E+09,9E+09,9E+09]];
	VAR robtarget P144B_2:=[[1345,75.830432442,-40],[0,0.697269293,0.716809272,0],[0,-1,2,0],[9E+09,9E+09,9E+09,9E+09,9E+09,9E+09]];
	VAR robtarget P144B:=[[1345,-1731,-40],[0,0.697269293,0.716809272,0],[-1,-1,1,0],[9E+09,9E+09,9E+09,9E+09,9E+09,9E+09]];
	VAR robtarget P145B_2:=[[1020,75.533906899,-40],[0.17822478,-0.665143936,-0.700425761,0.187678518],[0,-1,2,0],[9E+09,9E+09,9E+09,9E+09,9E+09,9E+09]];
	VAR robtarget P145B:=[[1020,-1731,-40],[0,0.697269293,0.716809272,0],[-1,-1,1,0],[9E+09,9E+09,9E+09,9E+09,9E+09,9E+09]];
	VAR robtarget P134B_2:=[[1360,99.830432442,80],[0,0.697269293,0.716809272,0],[0,-1,2,0],[9E+09,9E+09,9E+09,9E+09,9E+09,9E+09]];
	VAR robtarget P134B:=[[1360,-1731,80],[0,0.697269293,0.716809272,0],[-1,-1,1,0],[9E+09,9E+09,9E+09,9E+09,9E+09,9E+09]];
	VAR robtarget P142A_2:=[[2027,75.783363111,-30],[0,0.697269293,0.716809272,0],[0,-1,2,0],[9E+09,9E+09,9E+09,9E+09,9E+09,9E+09]];
	VAR robtarget P142A:=[[2027,-1731.153729747,-30],[0,0.697269293,0.716809272,0],[-1,0,1,0],[9E+09,9E+09,9E+09,9E+09,9E+09,9E+09]];
	VAR robtarget P141A_2:=[[2298,75.088595415,-35],[0.495795153,0.501708655,0.503256953,0.499207403],[0,0,1,1],[9E+09,9E+09,9E+09,9E+09,9E+09,9E+09]];
    	VAR robtarget P141A:=[[2298,-1731,-35],[0.413703227,0.571291562,0.573340923,0.416840231],[-1,-1,2,1],[9E+09,9E+09,9E+09,9E+09,9E+09,9E+09]];
	VAR robtarget P141A_2B:=[[2298,75.088595415,-45],[0.495795153,0.501708655,0.503256953,0.499207403],[0,0,1,1],[9E+09,9E+09,9E+09,9E+09,9E+09,9E+09]];
    	VAR robtarget P141A_B:=[[2298,-1731,-45],[0.413703227,0.571291562,0.573340923,0.416840231],[-1,-1,2,1],[9E+09,9E+09,9E+09,9E+09,9E+09,9E+09]];
    	VAR robtarget P135B_2:=[[1085,75.533906904,80],[0,0.697269293,0.716809272,0],[0,-1,2,0],[9E+09,9E+09,9E+09,9E+09,9E+09,9E+09]];
	VAR robtarget P135B:=[[1085,-1731,80],[0,0.697269293,0.716809272,0],[-1,-1,1,0],[9E+09,9E+09,9E+09,9E+09,9E+09,9E+09]];
	VAR robtarget P124B_2:=[[1360,75.830432442,200],[0,0.697269293,0.716809272,0],[0,-1,2,0],[9E+09,9E+09,9E+09,9E+09,9E+09,9E+09]];
	VAR robtarget P124B:=[[1360,-1731,200],[0,0.697269293,0.716809272,0],[-1,-1,1,0],[9E+09,9E+09,9E+09,9E+09,9E+09,9E+09]];
	VAR robtarget P131A_2:=[[2298,75.088181636,75],[0.495795153,0.501708655,0.503256953,0.499207403],[0,0,1,1],[9E+09,9E+09,9E+09,9E+09,9E+09,9E+09]];
    	VAR robtarget P131A:=[[2298,-1731,75],[0.465131135,0.507601561,0.534713499,0.489974649],[-1,-1,2,1],[9E+09,9E+09,9E+09,9E+09,9E+09,9E+09]];
	VAR robtarget P132A_2:=[[2032.054074408,75.783363111,80],[0,0.697269293,0.716809272,0],[0,-1,2,0],[9E+09,9E+09,9E+09,9E+09,9E+09,9E+09]];
	VAR robtarget P132A:=[[2028.672481271,-1731,80],[0,0.697269293,0.716809272,0],[-1,-1,1,0],[9E+09,9E+09,9E+09,9E+09,9E+09,9E+09]];
	VAR robtarget P125B_2:=[[1085,75.533906904,200],[0,0.697269293,0.716809272,0],[0,-1,2,0],[9E+09,9E+09,9E+09,9E+09,9E+09,9E+09]];
	VAR robtarget P125B:=[[1085,-1731,200],[0,0.697269293,0.716809272,0],[-1,-1,1,0],[9E+09,9E+09,9E+09,9E+09,9E+09,9E+09]];
	VAR robtarget P114B_2:=[[1360,75.830432442,320],[0,0.697269293,0.716809272,0],[0,-1,2,0],[9E+09,9E+09,9E+09,9E+09,9E+09,9E+09]];
	VAR robtarget P114B:=[[1360.395741186,-1731,320],[0,0.697269293,0.716809272,0],[-1,-1,1,0],[9E+09,9E+09,9E+09,9E+09,9E+09,9E+09]];
	VAR robtarget P121A_2:=[[2302,75.088599167,185],[0.50131,0.49607,0.50885,0.49363],[-1,-1,1,1],[9E+09,9E+09,9E+09,9E+09,9E+09,9E+09]];
	VAR robtarget P121A:=[[2302,-1731,185],[0.50131,0.49607,0.50885,0.49363],[-1,-1,1,1],[9E+09,9E+09,9E+09,9E+09,9E+09,9E+09]];
	VAR robtarget P122A_2:=[[2037,75.783363111,200],[0,0.697269293,0.716809272,0],[0,-1,2,0],[9E+09,9E+09,9E+09,9E+09,9E+09,9E+09]];
	VAR robtarget P122A:=[[2037,-1731,200],[0,0.697269293,0.716809272,0],[-1,-1,1,0],[9E+09,9E+09,9E+09,9E+09,9E+09,9E+09]];
	VAR robtarget P115B_2:=[[1085,75.533906904,320],[0,0.697269293,0.716809272,0],[0,-1,2,0],[9E+09,9E+09,9E+09,9E+09,9E+09,9E+09]];
	VAR robtarget P115B:=[[1085,-1731,320],[0,0.697269293,0.716809272,0],[-1,-1,1,0],[9E+09,9E+09,9E+09,9E+09,9E+09,9E+09]];
	VAR robtarget P104B_2:=[[1360,75.830432442,440],[0,0.697269293,0.716809272,0],[0,-1,2,0],[9E+09,9E+09,9E+09,9E+09,9E+09,9E+09]];
	VAR robtarget P104B:=[[1360,-1731,440],[0,0.697269293,0.716809272,0],[-1,-1,1,0],[9E+09,9E+09,9E+09,9E+09,9E+09,9E+09]];
	VAR robtarget P111A_2:=[[2302,75.088599167,305],[0.50131,0.49607,0.50885,0.49363],[-1,-1,1,1],[9E+09,9E+09,9E+09,9E+09,9E+09,9E+09]];
	VAR robtarget P111A:=[[2302,-1731,305],[0.50131,0.49607,0.50885,0.49363],[-1,-1,1,1],[9E+09,9E+09,9E+09,9E+09,9E+09,9E+09]];
	VAR robtarget P112A_2:=[[2039,75.783363111,320],[0,0.697269293,0.716809272,0],[0,-1,2,0],[9E+09,9E+09,9E+09,9E+09,9E+09,9E+09]];
	VAR robtarget P112A:=[[2039,-1731,320],[0,0.697269293,0.716809272,0],[-1,-1,1,0],[9E+09,9E+09,9E+09,9E+09,9E+09,9E+09]];
	VAR robtarget P105B_2:=[[1085,75.533906904,440],[0,0.697269293,0.716809272,0],[0,-1,2,0],[9E+09,9E+09,9E+09,9E+09,9E+09,9E+09]];
	VAR robtarget P105B:=[[1085,-1731,440],[0,0.697269293,0.716809272,0],[-1,-1,1,0],[9E+09,9E+09,9E+09,9E+09,9E+09,9E+09]];
	VAR robtarget P94B_2:=[[1360,75.830432442,560],[0,0.697269293,0.716809272,0],[0,-1,2,0],[9E+09,9E+09,9E+09,9E+09,9E+09,9E+09]];
	VAR robtarget P94B:=[[1360.395741186,-1731,560],[0,0.697269293,0.716809272,0],[-1,-1,1,0],[9E+09,9E+09,9E+09,9E+09,9E+09,9E+09]];
	VAR robtarget P101A_2:=[[2302,75.088599167,425],[0.50131,0.49607,0.50885,0.49363],[-1,-1,1,1],[9E+09,9E+09,9E+09,9E+09,9E+09,9E+09]];
	VAR robtarget P101A:=[[2302,-1731,425],[0.50131,0.49607,0.50885,0.49363],[-1,-1,1,1],[9E+09,9E+09,9E+09,9E+09,9E+09,9E+09]];
	VAR robtarget P102A_2:=[[2037,75,440],[0,0.697269293,0.716809272,0],[0,-1,2,0],[9E+09,9E+09,9E+09,9E+09,9E+09,9E+09]];
	VAR robtarget P102A:=[[2037,-1731,440],[0,0.697269293,0.716809272,0],[-1,-1,1,0],[9E+09,9E+09,9E+09,9E+09,9E+09,9E+09]];
	VAR robtarget P95B_2:=[[1085,75.533906904,560],[0,0.697269293,0.716809272,0],[0,-1,2,0],[9E+09,9E+09,9E+09,9E+09,9E+09,9E+09]];
	VAR robtarget P95B:=[[1085,-1731,560],[0,0.697269293,0.716809272,0],[-1,-1,1,0],[9E+09,9E+09,9E+09,9E+09,9E+09,9E+09]];
	VAR robtarget P52A_2:=[[2037,134.783363126,1025],[0.50131,0.49607,0.50885,0.49363],[-1,-1,1,1],[9E+09,9E+09,9E+09,9E+09,9E+09,9E+09]];
	VAR robtarget P52A:=[[2037,-1731,1025],[0.50131,0.49607,0.50885,0.49363],[-1,-1,1,1],[9E+09,9E+09,9E+09,9E+09,9E+09,9E+09]];
	VAR robtarget P53B_2:=[[1655,116.570364164,1040],[0,0.697269293,0.716809272,0],[0,-1,2,0],[9E+09,9E+09,9E+09,9E+09,9E+09,9E+09]];
	VAR robtarget P53B:=[[1655,-1731,1040],[0,0.697269293,0.716809272,0],[-1,-1,1,0],[9E+09,9E+09,9E+09,9E+09,9E+09,9E+09]];
	VAR robtarget P54B_2:=[[1360,99.830432442,1040],[0,0.697269293,0.716809272,0],[0,-1,2,0],[9E+09,9E+09,9E+09,9E+09,9E+09,9E+09]];
	VAR robtarget P54B:=[[1360,-1731,1040],[0,0.697269293,0.716809272,0],[-1,-1,1,0],[9E+09,9E+09,9E+09,9E+09,9E+09,9E+09]];
	VAR robtarget P62A_2:=[[2037,134.783363106,905],[0.50131,0.49607,0.50885,0.49363],[0,0,1,1],[9E+09,9E+09,9E+09,9E+09,9E+09,9E+09]];
	VAR robtarget P62A:=[[2037,-1731,905],[0.50131,0.49607,0.50885,0.49363],[-1,-1,2,1],[9E+09,9E+09,9E+09,9E+09,9E+09,9E+09]];
	VAR robtarget P64B_2:=[[1360,99.830432442,920],[0,0.697269293,0.716809272,0],[0,-1,2,0],[9E+09,9E+09,9E+09,9E+09,9E+09,9E+09]];
	VAR robtarget P64B:=[[1360,-1731,920],[0,0.697269293,0.716809272,0],[-1,-1,1,0],[9E+09,9E+09,9E+09,9E+09,9E+09,9E+09]];
	VAR robtarget P63B_2:=[[1655,116.570364164,920],[0,0.697269293,0.716809272,0],[0,-1,2,0],[9E+09,9E+09,9E+09,9E+09,9E+09,9E+09]];
	VAR robtarget P63B:=[[1655,-1731,920],[0,0.697269293,0.716809272,0],[-1,-1,1,0],[9E+09,9E+09,9E+09,9E+09,9E+09,9E+09]];
	VAR robtarget P61A_2:=[[2302,149.088599167,905],[0.50131,0.49607,0.50885,0.49363],[-1,-1,1,1],[9E+09,9E+09,9E+09,9E+09,9E+09,9E+09]];
	VAR robtarget P61A:=[[2302,-1731,905],[0.50131,0.49607,0.50885,0.49363],[-1,-1,1,1],[9E+09,9E+09,9E+09,9E+09,9E+09,9E+09]];
	VAR robtarget P72A_2:=[[2037,134.783363106,785],[0.50131,0.49607,0.50885,0.49363],[0,0,1,1],[9E+09,9E+09,9E+09,9E+09,9E+09,9E+09]];
	VAR robtarget P72A:=[[2037,-1731,785],[0.50131,0.49607,0.50885,0.49363],[-1,-1,2,1],[9E+09,9E+09,9E+09,9E+09,9E+09,9E+09]];
	VAR robtarget P74B_2:=[[1360,99.830432442,800],[0,0.697269293,0.716809272,0],[0,-1,2,0],[9E+09,9E+09,9E+09,9E+09,9E+09,9E+09]];
	VAR robtarget P74B:=[[1360,-1731,800],[0,0.697269293,0.716809272,0],[-1,-1,1,0],[9E+09,9E+09,9E+09,9E+09,9E+09,9E+09]];
	VAR robtarget P73B_2:=[[1655,116.570364164,800],[0,0.697269293,0.716809272,0],[0,-1,2,0],[9E+09,9E+09,9E+09,9E+09,9E+09,9E+09]];
	VAR robtarget P73B:=[[1655,-1731,800],[0,0.697269293,0.716809272,0],[-1,-1,1,0],[9E+09,9E+09,9E+09,9E+09,9E+09,9E+09]];
	VAR robtarget P71A_2:=[[2302,149.088599167,785],[0.50131,0.49607,0.50885,0.49363],[-1,-1,1,1],[9E+09,9E+09,9E+09,9E+09,9E+09,9E+09]];
	VAR robtarget P71A:=[[2302,-1731,785],[0.50131,0.49607,0.50885,0.49363],[-1,-1,1,1],[9E+09,9E+09,9E+09,9E+09,9E+09,9E+09]];
	VAR robtarget P82A_2:=[[2037,134.783363107,665],[0.50131,0.49607,0.50885,0.49363],[0,0,1,1],[9E+09,9E+09,9E+09,9E+09,9E+09,9E+09]];
	VAR robtarget P82A:=[[2037,-1731,665],[0.50131,0.49607,0.50885,0.49363],[-1,-1,2,1],[9E+09,9E+09,9E+09,9E+09,9E+09,9E+09]];
	VAR robtarget P81A_2:=[[2302,149.088599167,665],[0.50131,0.49607,0.50885,0.49363],[-1,-1,1,1],[9E+09,9E+09,9E+09,9E+09,9E+09,9E+09]];
	VAR robtarget P81A:=[[2302,-1731,665],[0.50131,0.49607,0.50885,0.49363],[-1,-1,1,1],[9E+09,9E+09,9E+09,9E+09,9E+09,9E+09]];
	VAR robtarget P85A_2:=[[1190,89.459090808,680],[0,0.697269293,0.716809272,0],[0,-1,2,0],[9E+09,9E+09,9E+09,9E+09,9E+09,9E+09]];
	VAR robtarget P85A:=[[1190,-1731,680],[0,0.697269293,0.716809272,0],[-1,-1,1,0],[9E+09,9E+09,9E+09,9E+09,9E+09,9E+09]];
	VAR robtarget P91B_2:=[[2210,75.163415235,545],[0.50131,0.49607,0.50885,0.49363],[0,0,1,1],[9E+09,9E+09,9E+09,9E+09,9E+09,9E+09]];
	VAR robtarget P91B:=[[2210,-1731,545],[0.50131,0.49607,0.50885,0.49363],[-1,-1,2,1],[9E+09,9E+09,9E+09,9E+09,9E+09,9E+09]];
	VAR robtarget P86B_2:=[[770,71.241658685,680],[0.263518748,-0.636190535,-0.66993656,0.277496809],[-1,0,1,0],[9E+09,9E+09,9E+09,9E+09,9E+09,9E+09]];
	VAR robtarget P86B:=[[770,-1731,680],[0,0.697269293,0.716809272,0],[-1,-1,1,0],[9E+09,9E+09,9E+09,9E+09,9E+09,9E+09]];
	VAR robtarget P84A_2:=[[1465,103.755616346,680],[0,0.697269293,0.716809272,0],[0,-1,2,0],[9E+09,9E+09,9E+09,9E+09,9E+09,9E+09]];
	VAR robtarget P84A:=[[1465,-1731,680],[0,0.697269293,0.716809272,0],[-1,-1,1,0],[9E+09,9E+09,9E+09,9E+09,9E+09,9E+09]];
	VAR robtarget P144A_2:=[[1465,75.755616346,-40],[0,0.697269293,0.716809272,0],[0,-1,2,0],[9E+09,9E+09,9E+09,9E+09,9E+09,9E+09]];
	VAR robtarget P144A:=[[1465.090597742,-1731,-40],[0,0.697269293,0.716809272,0],[-1,-1,1,0],[9E+09,9E+09,9E+09,9E+09,9E+09,9E+09]];
	VAR robtarget P145A_2:=[[1155,75.459090803,-40],[0.17822478,-0.665143936,-0.700425761,0.187678518],[0,-1,2,0],[9E+09,9E+09,9E+09,9E+09,9E+09,9E+09]];
	VAR robtarget P145A:=[[1155,-1731,-40],[0,0.697269293,0.716809272,0],[-1,-1,1,0],[9E+09,9E+09,9E+09,9E+09,9E+09,9E+09]];
	VAR robtarget P134A_2:=[[1465,75.755616346,80],[0,0.697269293,0.716809272,0],[0,-1,2,0],[9E+09,9E+09,9E+09,9E+09,9E+09,9E+09]];
	VAR robtarget P134A:=[[1465,-1731,80],[0,0.697269293,0.716809272,0],[-1,-1,1,0],[9E+09,9E+09,9E+09,9E+09,9E+09,9E+09]];
	VAR robtarget P141B_2:=[[2190,75.163411749,-35],[0.495795153,0.501708655,0.503256953,0.499207403],[0,0,1,1],[9E+09,9E+09,9E+09,9E+09,9E+09,9E+09]];
    	VAR robtarget P141B:=[[2190.601014121,-1732.575358738,-35],[0.41919783,0.546309248,0.575287518,0.441433638],[-1,-1,2,1],[9E+09,9E+09,9E+09,9E+09,9E+09,9E+09]];
	VAR robtarget P141B_2B:=[[2190,75.163411749,-50],[0.495795153,0.501708655,0.503256953,0.499207403],[0,0,2,1],[9E+09,9E+09,9E+09,9E+09,9E+09,9E+09]];
    	VAR robtarget P141B_B:=[[2190.601014121,-1732.575358738,-50],[0.41919783,0.546309248,0.575287518,0.441433638],[-1,-1,2,1],[9E+09,9E+09,9E+09,9E+09,9E+09,9E+09]];
    	VAR robtarget P136B_2:=[[765,71.241658682,80],[0.17822478,-0.665143936,-0.700425761,0.187678518],[-1,-1,2,0],[9E+09,9E+09,9E+09,9E+09,9E+09,9E+09]];
	VAR robtarget P136B:=[[765,-1731,80],[0,0.697269293,0.716809272,0],[-1,-1,1,0],[9E+09,9E+09,9E+09,9E+09,9E+09,9E+09]];
	VAR robtarget P135A_2:=[[1190,75.459090808,80],[0,0.697269293,0.716809272,0],[0,-1,2,0],[9E+09,9E+09,9E+09,9E+09,9E+09,9E+09]];
	VAR robtarget P135A:=[[1190,-1731,80],[0,0.697269293,0.716809272,0],[-1,-1,1,0],[9E+09,9E+09,9E+09,9E+09,9E+09,9E+09]];
	VAR robtarget P124A_2:=[[1465,75.755616346,200],[0,0.697269293,0.716809272,0],[0,-1,2,0],[9E+09,9E+09,9E+09,9E+09,9E+09,9E+09]];
	VAR robtarget P124A:=[[1465,-1731,200],[0,0.697269293,0.716809272,0],[-1,-1,1,0],[9E+09,9E+09,9E+09,9E+09,9E+09,9E+09]];
	VAR robtarget P126B_2:=[[765,71.241658682,200],[0.17822478,-0.665143936,-0.700425761,0.187678518],[-1,-1,2,0],[9E+09,9E+09,9E+09,9E+09,9E+09,9E+09]];
	VAR robtarget P126B:=[[765,-1731,200],[0,0.69761898,0.716468952,0],[-1,-1,1,0],[9E+09,9E+09,9E+09,9E+09,9E+09,9E+09]];
	VAR robtarget P131B_2:=[[2165,75.163415235,80],[0.486919155,0.486919155,0.512747244,0.512747244],[0,0,1,1],[9E+09,9E+09,9E+09,9E+09,9E+09,9E+09]];
    	VAR robtarget P131B:=[[2165,-1731,80],[0.495795153,0.501708655,0.503256953,0.499207403],[-1,-1,2,1],[9E+09,9E+09,9E+09,9E+09,9E+09,9E+09]];
    	VAR robtarget P125A_2:=[[1190,75.459090808,200],[0,0.697269293,0.716809272,0],[0,-1,2,0],[9E+09,9E+09,9E+09,9E+09,9E+09,9E+09]];
	VAR robtarget P125A:=[[1190,-1731,200],[0,0.697269293,0.716809272,0],[-1,-1,1,0],[9E+09,9E+09,9E+09,9E+09,9E+09,9E+09]];
	VAR robtarget P114A_2:=[[1465,75.755616346,320],[0,0.697269293,0.716809272,0],[0,-1,2,0],[9E+09,9E+09,9E+09,9E+09,9E+09,9E+09]];
	VAR robtarget P114A:=[[1465,-1731,320],[0,0.697269293,0.716809272,0],[-1,-1,1,0],[9E+09,9E+09,9E+09,9E+09,9E+09,9E+09]];
	VAR robtarget P116B_2:=[[765,71.241186605,305],[0.46233,-0.51981,-0.53978,0.47401],[-1,-1,2,0],[9E+09,9E+09,9E+09,9E+09,9E+09,9E+09]];
	VAR robtarget P116B:=[[765,-1731,305],[0.46233,-0.51981,-0.53978,0.47401],[-1,-1,1,0],[9E+09,9E+09,9E+09,9E+09,9E+09,9E+09]];
	VAR robtarget P116B_2B:=[[765,71.241186605,300],[0.46233,-0.51981,-0.53978,0.47401],[-1,-1,2,0],[9E+09,9E+09,9E+09,9E+09,9E+09,9E+09]];
	VAR robtarget P116B_B:=[[765,-1731,300],[0.46233,-0.51981,-0.53978,0.47401],[-1,-1,1,0],[9E+09,9E+09,9E+09,9E+09,9E+09,9E+09]];
	VAR robtarget P121B_2:=[[2210,75.163415235,185],[0.50131,0.49607,0.50885,0.49363],[0,0,1,1],[9E+09,9E+09,9E+09,9E+09,9E+09,9E+09]];
	VAR robtarget P121B:=[[2210,-1731,185],[0.50131,0.49607,0.50885,0.49363],[-1,-1,2,1],[9E+09,9E+09,9E+09,9E+09,9E+09,9E+09]];
	VAR robtarget P115A_2:=[[1190,75.459090808,320],[0,0.697269293,0.716809272,0],[0,-1,2,0],[9E+09,9E+09,9E+09,9E+09,9E+09,9E+09]];
	VAR robtarget P115A:=[[1190,-1731,320],[0,0.697269293,0.716809272,0],[-1,-1,1,0],[9E+09,9E+09,9E+09,9E+09,9E+09,9E+09]];
	VAR robtarget P104A_2:=[[1465,75.755616346,440],[0,0.697269293,0.716809272,0],[0,-1,2,0],[9E+09,9E+09,9E+09,9E+09,9E+09,9E+09]];
	VAR robtarget P104A:=[[1465,-1731,440],[0,0.697269293,0.716809272,0],[-1,-1,1,0],[9E+09,9E+09,9E+09,9E+09,9E+09,9E+09]];
	VAR robtarget P106B_2:=[[760,71.24165751,420],[0.46233,-0.51981,-0.53978,0.47401],[-1,-1,1,0],[9E+09,9E+09,9E+09,9E+09,9E+09,9E+09]];
	VAR robtarget P106B:=[[760,-1731,420],[0.46233,-0.51981,-0.53978,0.47401],[-1,-1,1,0],[9E+09,9E+09,9E+09,9E+09,9E+09,9E+09]];
	VAR robtarget P106B_2B:=[[760,71.24165751,417],[0.46233,-0.51981,-0.53978,0.47401],[-1,-1,1,0],[9E+09,9E+09,9E+09,9E+09,9E+09,9E+09]];
	VAR robtarget P106B_B:=[[760,-1731,417],[0.46233,-0.51981,-0.53978,0.47401],[-1,-1,1,0],[9E+09,9E+09,9E+09,9E+09,9E+09,9E+09]];
	VAR robtarget P111B_2:=[[2210,75.163415235,305],[0.50131,0.49607,0.50885,0.49363],[0,0,1,1],[9E+09,9E+09,9E+09,9E+09,9E+09,9E+09]];
	VAR robtarget P111B:=[[2210,-1731,305],[0.50131,0.49607,0.50885,0.49363],[-1,-1,2,1],[9E+09,9E+09,9E+09,9E+09,9E+09,9E+09]];
	VAR robtarget P105A_2:=[[1190,75.459090808,440],[0,0.697269293,0.716809272,0],[0,-1,2,0],[9E+09,9E+09,9E+09,9E+09,9E+09,9E+09]];
	VAR robtarget P105A:=[[1190,-1731,440],[0,0.697269293,0.716809272,0],[-1,-1,1,0],[9E+09,9E+09,9E+09,9E+09,9E+09,9E+09]];
	VAR robtarget P94A_2:=[[1465,75.755616346,560],[0,0.697269293,0.716809272,0],[0,-1,2,0],[9E+09,9E+09,9E+09,9E+09,9E+09,9E+09]];
	VAR robtarget P94A:=[[1465,-1731,560],[0,0.697269293,0.716809272,0],[-1,-1,1,0],[9E+09,9E+09,9E+09,9E+09,9E+09,9E+09]];
	VAR robtarget P96B_2:=[[780,71.241658673,542],[0.46233,-0.51981,-0.53978,0.47401],[-1,-1,1,0],[9E+09,9E+09,9E+09,9E+09,9E+09,9E+09]];
	VAR robtarget P96B:=[[780,-1731,542],[0.46233,-0.51981,-0.53978,0.47401],[-1,-1,1,0],[9E+09,9E+09,9E+09,9E+09,9E+09,9E+09]];
	VAR robtarget P96B_2B:=[[780,71.241658673,540],[0.46233,-0.51981,-0.53978,0.47401],[-1,-1,1,0],[9E+09,9E+09,9E+09,9E+09,9E+09,9E+09]];
	VAR robtarget P96B_B:=[[780,-1731,540],[0.46233,-0.51981,-0.53978,0.47401],[-1,-1,1,0],[9E+09,9E+09,9E+09,9E+09,9E+09,9E+09]];
    	VAR robtarget P101B_2:=[[2210,75.163415235,435],[0.50131,0.49607,0.50885,0.49363],[0,0,1,1],[9E+09,9E+09,9E+09,9E+09,9E+09,9E+09]];
	VAR robtarget P101B:=[[2210,-1731,435],[0.50131,0.49607,0.50885,0.49363],[-1,-1,2,1],[9E+09,9E+09,9E+09,9E+09,9E+09,9E+09]];
	VAR robtarget P95A_2:=[[1190,75.459090808,565],[0,0.697269293,0.716809272,0],[0,-1,2,0],[9E+09,9E+09,9E+09,9E+09,9E+09,9E+09]];
	VAR robtarget P95A:=[[1190,-1731,565],[0,0.697269293,0.716809272,0],[-1,-1,1,0],[9E+09,9E+09,9E+09,9E+09,9E+09,9E+09]];
	VAR robtarget Home:=[[1706.979107091,14.384176324,1439.15059054],[0.001421111,0.685813638,0.727774574,0.001342966],[-1,0,0,0],[9E+09,9E+09,9E+09,9E+09,9E+09,9E+09]];
	VAR robtarget Pre_3m:=[[1379.365177468,1148.375930012,1490.425476564],[0,0.725254219,-0.688481168,0],[0,0,-1,0],[9E+09,9E+09,9E+09,9E+09,9E+09,9E+09]];
	VAR robtarget Place_3m:=[[1067.58842799,1982.991054418,600],[0,0.725254219,-0.688481168,0],[0,0,-1,0],[9E+09,9E+09,9E+09,9E+09,9E+09,9E+09]];
	VAR robtarget Target_40:=[[578.964630081,-308.850066699,1515.417254376],[0,0.688481168,0.725254219,0],[-1,-1,1,0],[9E+09,9E+09,9E+09,9E+09,9E+09,9E+09]];
	VAR robtarget Pre_torcido:=[[-63.305253095,-1247.326971536,800.18516522],[0.089881338,-0.682716539,-0.718930484,0.094648994],[-1,0,1,0],[9E+09,9E+09,9E+09,9E+09,9E+09,9E+09]];
	VAR robtarget Pick_torcido:=[[-135,-1250,604.5],[0.088190333,-0.695012626,-0.707052672,0.096210364],[-1,0,1,0],[9E+09,9E+09,9E+09,9E+09,9E+09,9E+09]];	
    	VAR robtarget P11A_3:=[[2447.792173614,-1508.719673364,1744.972794414],[0.703573055,-0.001094812,0.710617996,0.002412825],[-1,-1,1,1],[9E+09,9E+09,9E+09,9E+09,9E+09,9E+09]];
	VAR robtarget P11A_4:=[[2362.214765659,-54.582515377,1743.087050011],[0.703573055,-0.001094812,0.710617996,0.002412825],[-1,-1,1,1],[9E+09,9E+09,9E+09,9E+09,9E+09,9E+09]];
	VAR robtarget P11B_3:=[[2372.862,-1509,1745],[0.703571521,-0.001093139,0.710619521,0.002411754],[-1,-1,1,1],[9E+09,9E+09,9E+09,9E+09,9E+09,9E+09]];
	VAR robtarget P12A_3:=[[2187,-1509,1745],[0.703571521,-0.001093139,0.710619521,0.002411754],[-1,-1,1,1],[9E+09,9E+09,9E+09,9E+09,9E+09,9E+09]];
	VAR robtarget P12B_3:=[[2082,-1509,1745.129],[0.703571521,-0.001093139,0.710619521,0.002411754],[-1,-1,1,1],[9E+09,9E+09,9E+09,9E+09,9E+09,9E+09]];
	VAR robtarget P13A_3:=[[1899.786,-1509,1745],[0.703571521,-0.001093139,0.710619521,0.002411754],[-1,-1,1,1],[9E+09,9E+09,9E+09,9E+09,9E+09,9E+09]];
	VAR robtarget P13B_3:=[[1825.091,-1509,1745],[0.703571521,-0.001093139,0.710619521,0.002411754],[-1,-1,1,1],[9E+09,9E+09,9E+09,9E+09,9E+09,9E+09]];
	VAR robtarget P14A_3:=[[1680,-1495.086348915,1377],[0,-0.013816852,0.999904543,0],[-1,0,0,0],[9E+09,9E+09,9E+09,9E+09,9E+09,9E+09]];
	VAR robtarget P14B_3:=[[1575,-1495.091875128,1377],[0,-0.013816852,0.999904543,0],[-1,0,0,0],[9E+09,9E+09,9E+09,9E+09,9E+09,9E+09]];
	VAR robtarget P15A_3:=[[1405,-1495.091875128,1377],[0,-0.013816852,0.999904543,0],[-1,0,0,0],[9E+09,9E+09,9E+09,9E+09,9E+09,9E+09]];
	VAR robtarget P15B_3:=[[1300,-1495.091875128,1377],[0,-0.013816852,0.999904543,0],[-1,0,0,0],[9E+09,9E+09,9E+09,9E+09,9E+09,9E+09]];
	VAR robtarget P16A_3:=[[1105,-1495.091875128,1377],[0,-0.013816852,0.999904543,0],[-1,0,0,0],[9E+09,9E+09,9E+09,9E+09,9E+09,9E+09]];
	VAR robtarget P16B_3:=[[1015,-1495.091875128,1377],[0,-0.013816852,0.999904543,0],[-1,0,0,0],[9E+09,9E+09,9E+09,9E+09,9E+09,9E+09]];
	VAR robtarget P21A_3:=[[2447.558,-1509,1625],[0.703571521,-0.001093139,0.710619521,0.002411754],[-1,-1,1,1],[9E+09,9E+09,9E+09,9E+09,9E+09,9E+09]];
	VAR robtarget P21B_3:=[[2372.863,-1509,1625],[0.703571521,-0.001093139,0.710619521,0.002411754],[-1,-1,1,1],[9E+09,9E+09,9E+09,9E+09,9E+09,9E+09]];
	VAR robtarget P22A_3:=[[2187,-1509,1625],[0.703571521,-0.001093139,0.710619521,0.002411754],[-1,-1,1,1],[9E+09,9E+09,9E+09,9E+09,9E+09,9E+09]];
	VAR robtarget P22B_3:=[[2082,-1509,1625],[0.703571521,-0.001093139,0.710619521,0.002411754],[-1,-1,1,1],[9E+09,9E+09,9E+09,9E+09,9E+09,9E+09]];
	VAR robtarget P23A_3:=[[1899.786,-1509,1625],[0.703571521,-0.001093139,0.710619521,0.002411754],[-1,-1,1,1],[9E+09,9E+09,9E+09,9E+09,9E+09,9E+09]];
	VAR robtarget P23B_3:=[[1825.091,-1509,1625],[0.703571521,-0.001093139,0.710619521,0.002411754],[-1,-1,1,1],[9E+09,9E+09,9E+09,9E+09,9E+09,9E+09]];
	VAR robtarget P24A_3:=[[1680,-1495.091875128,1257],[0,-0.013816852,0.999904543,0],[-1,0,0,0],[9E+09,9E+09,9E+09,9E+09,9E+09,9E+09]];
	VAR robtarget P24B_3:=[[1575,-1495.091875128,1257],[0,-0.013816852,0.999904543,0],[-1,0,0,0],[9E+09,9E+09,9E+09,9E+09,9E+09,9E+09]];
	VAR robtarget P25A_3:=[[1405,-1495.091875128,1257],[0,-0.013816852,0.999904543,0],[-1,0,0,0],[9E+09,9E+09,9E+09,9E+09,9E+09,9E+09]];
	VAR robtarget P25B_3:=[[1300,-1495.091875128,1257],[0,-0.013816852,0.999904543,0],[-1,0,0,0],[9E+09,9E+09,9E+09,9E+09,9E+09,9E+09]];
	VAR robtarget P26A_3:=[[1105,-1495.091875128,1257],[0,-0.013816852,0.999904543,0],[-1,0,-1,0],[9E+09,9E+09,9E+09,9E+09,9E+09,9E+09]];
	VAR robtarget P26B_3:=[[1015,-1495.091875128,1257],[0,-0.013816852,0.999904543,0],[-1,0,-1,0],[9E+09,9E+09,9E+09,9E+09,9E+09,9E+09]];
	VAR robtarget P31A_3:=[[2447.558,-1509,1505],[0.703571521,-0.001093139,0.710619521,0.002411754],[-1,-1,1,1],[9E+09,9E+09,9E+09,9E+09,9E+09,9E+09]];
	VAR robtarget P31B_3:=[[2372.863,-1509,1505],[0.703571521,-0.001093139,0.710619521,0.002411754],[-1,-1,1,1],[9E+09,9E+09,9E+09,9E+09,9E+09,9E+09]];
	VAR robtarget P32A_3:=[[2187,-1509,1505],[0.703571521,-0.001093139,0.710619521,0.002411754],[-1,-1,1,1],[9E+09,9E+09,9E+09,9E+09,9E+09,9E+09]];
	VAR robtarget P32B_3:=[[2082,-1509,1505],[0.703571521,-0.001093139,0.710619521,0.002411754],[-1,-1,1,1],[9E+09,9E+09,9E+09,9E+09,9E+09,9E+09]];
	VAR robtarget P33A_3:=[[1899.786,-1509,1505.041],[0.703571521,-0.001093139,0.710619521,0.002411754],[-1,-1,1,1],[9E+09,9E+09,9E+09,9E+09,9E+09,9E+09]];
	VAR robtarget P33B_3:=[[1825.091,-1509,1505.149],[0.703571521,-0.001093139,0.710619521,0.002411754],[-1,-1,1,1],[9E+09,9E+09,9E+09,9E+09,9E+09,9E+09]];
	VAR robtarget P34A_3:=[[1680,-1495.091875128,1137],[0,-0.013816852,0.999904543,0],[-1,0,0,0],[9E+09,9E+09,9E+09,9E+09,9E+09,9E+09]];
	VAR robtarget P34B_3:=[[1575,-1495.091875128,1137],[0,-0.013816852,0.999904543,0],[-1,0,0,0],[9E+09,9E+09,9E+09,9E+09,9E+09,9E+09]];
	VAR robtarget P35A_3:=[[1405,-1495.091875128,1137],[0,-0.013816852,0.999904543,0],[-1,0,0,0],[9E+09,9E+09,9E+09,9E+09,9E+09,9E+09]];
	VAR robtarget P35B_3:=[[1300,-1495.091875128,1137],[0,-0.013816852,0.999904543,0],[-1,0,0,0],[9E+09,9E+09,9E+09,9E+09,9E+09,9E+09]];
	VAR robtarget P36A_3:=[[1105,-1495.091875128,1137],[0,-0.013816852,0.999904543,0],[-1,0,0,0],[9E+09,9E+09,9E+09,9E+09,9E+09,9E+09]];
	VAR robtarget P36B_3:=[[1015,-1495.091875128,1137],[0,-0.013816852,0.999904543,0],[-1,0,0,0],[9E+09,9E+09,9E+09,9E+09,9E+09,9E+09]];
	VAR robtarget P41A_3:=[[2447.558,-1509,1385],[0.703571521,-0.001093139,0.710619521,0.002411754],[-1,-1,1,1],[9E+09,9E+09,9E+09,9E+09,9E+09,9E+09]];
	VAR robtarget P41B_3:=[[2372.863,-1509,1385],[0.703571521,-0.001093139,0.710619521,0.002411754],[-1,-1,1,1],[9E+09,9E+09,9E+09,9E+09,9E+09,9E+09]];
	VAR robtarget P42A_3:=[[2187,-1509,1385],[0.703571521,-0.001093139,0.710619521,0.002411754],[-1,-1,1,1],[9E+09,9E+09,9E+09,9E+09,9E+09,9E+09]];
	VAR robtarget P42B_3:=[[2082,-1509,1385],[0.703571521,-0.001093139,0.710619521,0.002411754],[-1,-1,1,1],[9E+09,9E+09,9E+09,9E+09,9E+09,9E+09]];
	VAR robtarget P43A_3:=[[1985,-1495.091875128,1017],[0,-0.013816852,0.999904543,0],[-1,0,1,0],[9E+09,9E+09,9E+09,9E+09,9E+09,9E+09]];
	VAR robtarget P43B_3:=[[1870,-1495.091875128,1017],[0,-0.013816852,0.999904543,0],[-1,0,1,0],[9E+09,9E+09,9E+09,9E+09,9E+09,9E+09]];
	VAR robtarget P44A_3:=[[1680,-1496.264044666,1015.146777409],[0,-0.013816852,0.999904543,0],[-1,0,0,0],[9E+09,9E+09,9E+09,9E+09,9E+09,9E+09]];
	VAR robtarget P44B_3:=[[1575,-1495.091875128,1017],[0,-0.013816852,0.999904543,0],[-1,0,0,0],[9E+09,9E+09,9E+09,9E+09,9E+09,9E+09]];
	VAR robtarget P45A_3:=[[1405,-1495.091875128,1017],[0,-0.013816852,0.999904543,0],[-1,0,0,0],[9E+09,9E+09,9E+09,9E+09,9E+09,9E+09]];
	VAR robtarget P45B_3:=[[1300,-1495.091875128,1017],[0,-0.013816852,0.999904543,0],[-1,0,0,0],[9E+09,9E+09,9E+09,9E+09,9E+09,9E+09]];
	VAR robtarget P46A_3:=[[1120,-1495.091875128,1017],[0,-0.013816852,0.999904543,0],[-1,0,0,0],[9E+09,9E+09,9E+09,9E+09,9E+09,9E+09]];
	VAR robtarget P46B_3:=[[1015,-1495.091875128,1017],[0,-0.013816852,0.999904543,0],[-1,0,0,0],[9E+09,9E+09,9E+09,9E+09,9E+09,9E+09]];
	VAR robtarget P51A_3:=[[2447.558,-1509,1265],[0.703571521,-0.001093139,0.710619521,0.002411754],[-1,-1,1,1],[9E+09,9E+09,9E+09,9E+09,9E+09,9E+09]];
	VAR robtarget P51B_3:=[[2372.863,-1509,1265],[0.703571521,-0.001093139,0.710619521,0.002411754],[-1,-1,1,1],[9E+09,9E+09,9E+09,9E+09,9E+09,9E+09]];
	VAR robtarget P52A_3:=[[2187,-1509,1265],[0.703571521,-0.001093139,0.710619521,0.002411754],[-1,-1,1,1],[9E+09,9E+09,9E+09,9E+09,9E+09,9E+09]];
	VAR robtarget P52B_3:=[[2082,-1509,1265],[0.703571521,-0.001093139,0.710619521,0.002411754],[-1,-1,1,1],[9E+09,9E+09,9E+09,9E+09,9E+09,9E+09]];
	VAR robtarget P53A_3:=[[1985,-1495.091875128,897],[0,-0.013816852,0.999904543,0],[-1,-1,1,0],[9E+09,9E+09,9E+09,9E+09,9E+09,9E+09]];
	VAR robtarget P53B_3:=[[1870,-1495.091875128,897],[0,-0.013816852,0.999904543,0],[-1,-1,1,0],[9E+09,9E+09,9E+09,9E+09,9E+09,9E+09]];
	VAR robtarget P54A_3:=[[1680,-1495.091875128,897],[0,-0.013816852,0.999904543,0],[-1,0,0,0],[9E+09,9E+09,9E+09,9E+09,9E+09,9E+09]];
	VAR robtarget P54B_3:=[[1575,-1495.091875128,897],[0,-0.013816852,0.999904543,0],[-1,0,0,0],[9E+09,9E+09,9E+09,9E+09,9E+09,9E+09]];
	VAR robtarget P55A_3:=[[1405,-1495.091875128,897],[0,-0.013816852,0.999904543,0],[-1,0,0,0],[9E+09,9E+09,9E+09,9E+09,9E+09,9E+09]];
	VAR robtarget P55B_3:=[[1300,-1495.091875128,897],[0,-0.013816852,0.999904543,0],[-1,0,0,0],[9E+09,9E+09,9E+09,9E+09,9E+09,9E+09]];
	VAR robtarget P56A_3:=[[1120,-1495.091875128,897],[0,-0.013816852,0.999904543,0],[-1,0,0,0],[9E+09,9E+09,9E+09,9E+09,9E+09,9E+09]];
	VAR robtarget P56B_3:=[[1015,-1495.091875128,897],[0,-0.013816852,0.999904543,0],[-1,0,0,0],[9E+09,9E+09,9E+09,9E+09,9E+09,9E+09]];
	VAR robtarget P61A_3:=[[2447.558,-1509,1145],[0.703571521,-0.001093139,0.710619521,0.002411754],[-1,-1,1,1],[9E+09,9E+09,9E+09,9E+09,9E+09,9E+09]];
	VAR robtarget P61B_3:=[[2372.863,-1509,1145],[0.703571521,-0.001093139,0.710619521,0.002411754],[-1,-1,1,1],[9E+09,9E+09,9E+09,9E+09,9E+09,9E+09]];
	VAR robtarget P62A_3:=[[2187,-1509,1145],[0.703571521,-0.001093139,0.710619521,0.002411754],[-1,-1,1,1],[9E+09,9E+09,9E+09,9E+09,9E+09,9E+09]];
	VAR robtarget P62B_3:=[[2082,-1508.71287807,1143.963307331],[0.703573055,-0.001094812,0.710617996,0.002412825],[-1,-1,1,1],[9E+09,9E+09,9E+09,9E+09,9E+09,9E+09]];
	VAR robtarget P63A_3:=[[1985,-1495.091875128,777],[0,-0.013816852,0.999904543,0],[-1,-1,1,0],[9E+09,9E+09,9E+09,9E+09,9E+09,9E+09]];
	VAR robtarget P63B_3:=[[1870,-1495.091875128,777],[0,-0.013816852,0.999904543,0],[-1,-1,1,0],[9E+09,9E+09,9E+09,9E+09,9E+09,9E+09]];
	VAR robtarget P64A_3:=[[1680,-1495.091875128,777],[0,-0.013816852,0.999904543,0],[-1,0,-1,0],[9E+09,9E+09,9E+09,9E+09,9E+09,9E+09]];
	VAR robtarget P64B_3:=[[1575,-1495.091875128,777],[0,-0.013816852,0.999904543,0],[-1,0,-1,0],[9E+09,9E+09,9E+09,9E+09,9E+09,9E+09]];
	VAR robtarget P65A_3:=[[1405,-1495.091875128,777],[0,-0.013816852,0.999904543,0],[-1,0,0,0],[9E+09,9E+09,9E+09,9E+09,9E+09,9E+09]];
	VAR robtarget P65B_3:=[[1300,-1495.091875128,777],[0,-0.013816852,0.999904543,0],[-1,0,0,0],[9E+09,9E+09,9E+09,9E+09,9E+09,9E+09]];
	VAR robtarget P66A_3:=[[1120,-1495.091875128,777],[0,-0.013816852,0.999904543,0],[-1,0,-1,0],[9E+09,9E+09,9E+09,9E+09,9E+09,9E+09]];
	VAR robtarget P66B_3:=[[1015,-1495.091875128,777],[0,-0.013816852,0.999904543,0],[-1,0,-1,0],[9E+09,9E+09,9E+09,9E+09,9E+09,9E+09]];
	VAR robtarget P71A_3:=[[2447.558,-1508.71287807,1023.963307331],[0.703573055,-0.001094812,0.710617996,0.002412825],[-1,-1,1,1],[9E+09,9E+09,9E+09,9E+09,9E+09,9E+09]];
	VAR robtarget P71B_3:=[[2372.863,-1508.71287807,1023.963307331],[0.703573055,-0.001094812,0.710617996,0.002412825],[-1,-1,1,1],[9E+09,9E+09,9E+09,9E+09,9E+09,9E+09]];
	VAR robtarget P72A_3:=[[2187,-1508.71287807,1023.963307331],[0.703573055,-0.001094812,0.710617996,0.002412825],[-1,-1,1,1],[9E+09,9E+09,9E+09,9E+09,9E+09,9E+09]];
	VAR robtarget P72B_3:=[[2175,-1495.091875128,657],[0,-0.013816852,0.999904543,0],[-1,-1,1,0],[9E+09,9E+09,9E+09,9E+09,9E+09,9E+09]];
	VAR robtarget P73A_3:=[[1985,-1495.091875128,657],[0,-0.013816852,0.999904543,0],[-1,-1,1,0],[9E+09,9E+09,9E+09,9E+09,9E+09,9E+09]];
	VAR robtarget P73B_3:=[[1870,-1495.091875128,657],[0,-0.013816852,0.999904543,0],[-1,-1,1,0],[9E+09,9E+09,9E+09,9E+09,9E+09,9E+09]];
	VAR robtarget P74A_3:=[[1680,-1495.091875128,657],[0,-0.013816852,0.999904543,0],[-1,0,0,0],[9E+09,9E+09,9E+09,9E+09,9E+09,9E+09]];
	VAR robtarget P74B_3:=[[1575,-1495.091875128,657],[0,-0.013816852,0.999904543,0],[-1,0,0,0],[9E+09,9E+09,9E+09,9E+09,9E+09,9E+09]];
	VAR robtarget P75A_3:=[[1405,-1495.091875128,657],[0,-0.013816852,0.999904543,0],[-1,0,0,0],[9E+09,9E+09,9E+09,9E+09,9E+09,9E+09]];
	VAR robtarget P75B_3:=[[1300,-1495.091875128,657],[0,-0.013816852,0.999904543,0],[-1,0,0,0],[9E+09,9E+09,9E+09,9E+09,9E+09,9E+09]];
	VAR robtarget P76A_3:=[[1120,-1495.091875128,657],[0,-0.013816852,0.999904543,0],[-1,0,0,0],[9E+09,9E+09,9E+09,9E+09,9E+09,9E+09]];
	VAR robtarget P76B_3:=[[1015,-1495.091875128,657],[0,-0.013816852,0.999904543,0],[-1,0,0,0],[9E+09,9E+09,9E+09,9E+09,9E+09,9E+09]];
	VAR robtarget P81A_3:=[[2447.558,-1508.71287807,903.963307331],[0.703573055,-0.001094812,0.710617996,0.002412825],[-1,-1,1,1],[9E+09,9E+09,9E+09,9E+09,9E+09,9E+09]];
	VAR robtarget P81B_3:=[[2372.863,-1508.71287807,903.963307331],[0.703573055,-0.001094812,0.710617996,0.002412825],[-1,-1,1,1],[9E+09,9E+09,9E+09,9E+09,9E+09,9E+09]];
	VAR robtarget P82A_3:=[[2187,-1508.71287807,903.963307331],[0.703573055,-0.001094812,0.710617996,0.002412825],[-1,-1,1,1],[9E+09,9E+09,9E+09,9E+09,9E+09,9E+09]];
	VAR robtarget P82B_3:=[[2175,-1495.091875128,537],[0,-0.013816852,0.999904543,0],[-1,-1,1,0],[9E+09,9E+09,9E+09,9E+09,9E+09,9E+09]];
	VAR robtarget P83A_3:=[[1985,-1495.091875128,537],[0,-0.013816852,0.999904543,0],[-1,-1,1,0],[9E+09,9E+09,9E+09,9E+09,9E+09,9E+09]];
	VAR robtarget P83B_3:=[[1870,-1495.091875128,537],[0,-0.013816852,0.999904543,0],[-1,-1,1,0],[9E+09,9E+09,9E+09,9E+09,9E+09,9E+09]];
	VAR robtarget P84A_3:=[[1680,-1495.091875128,537],[0,-0.013816852,0.999904543,0],[-1,0,0,0],[9E+09,9E+09,9E+09,9E+09,9E+09,9E+09]];
	VAR robtarget P84B_3:=[[1575,-1495.091875128,537],[0,-0.013816852,0.999904543,0],[-1,0,0,0],[9E+09,9E+09,9E+09,9E+09,9E+09,9E+09]];
	VAR robtarget P85A_3:=[[1405,-1495.091875128,537],[0,-0.013816852,0.999904543,0],[-1,0,0,0],[9E+09,9E+09,9E+09,9E+09,9E+09,9E+09]];
	VAR robtarget P85B_3:=[[1300,-1495.091875128,537],[0,-0.013816852,0.999904543,0],[-1,0,0,0],[9E+09,9E+09,9E+09,9E+09,9E+09,9E+09]];
	VAR robtarget P86A_3:=[[1120,-1495.091875128,537],[0,-0.013816852,0.999904543,0],[-1,0,0,0],[9E+09,9E+09,9E+09,9E+09,9E+09,9E+09]];
	VAR robtarget P86B_3:=[[1015,-1495.091875128,537],[0,-0.013816852,0.999904543,0],[-1,0,0,0],[9E+09,9E+09,9E+09,9E+09,9E+09,9E+09]];
	VAR robtarget P91A_3:=[[2447.558,-1508.71287807,783.963307331],[0.703573055,-0.001094812,0.710617996,0.002412825],[-1,-1,1,1],[9E+09,9E+09,9E+09,9E+09,9E+09,9E+09]];
	VAR robtarget P91B_3:=[[2372.863,-1508.71287807,783.963307331],[0.703573055,-0.001094812,0.710617996,0.002412825],[-1,-1,1,1],[9E+09,9E+09,9E+09,9E+09,9E+09,9E+09]];
	VAR robtarget P92A_3:=[[2187,-1508.71287807,783.963307331],[0.703573055,-0.001094812,0.710617996,0.002412825],[-1,-1,1,1],[9E+09,9E+09,9E+09,9E+09,9E+09,9E+09]];
	VAR robtarget P92B_3:=[[2175,-1495.091875128,417],[0,-0.013816852,0.999904543,0],[-1,-1,1,0],[9E+09,9E+09,9E+09,9E+09,9E+09,9E+09]];
	VAR robtarget P93A_3:=[[1985,-1495.091875128,417],[0,-0.013816852,0.999904543,0],[-1,-1,1,0],[9E+09,9E+09,9E+09,9E+09,9E+09,9E+09]];
	VAR robtarget P93B_3:=[[1870,-1495.091875128,417],[0,-0.013816852,0.999904543,0],[-1,-1,1,0],[9E+09,9E+09,9E+09,9E+09,9E+09,9E+09]];
	VAR robtarget P94A_3:=[[1680,-1495.091875128,417],[0,-0.013816852,0.999904543,0],[-1,0,0,0],[9E+09,9E+09,9E+09,9E+09,9E+09,9E+09]];
	VAR robtarget P94B_3:=[[1575,-1495.091875128,417],[0,-0.013816852,0.999904543,0],[-1,0,0,0],[9E+09,9E+09,9E+09,9E+09,9E+09,9E+09]];
	VAR robtarget P95A_3:=[[1405,-1495.091875128,417],[0,-0.013816852,0.999904543,0],[-1,0,0,0],[9E+09,9E+09,9E+09,9E+09,9E+09,9E+09]];
	VAR robtarget P95B_3:=[[1300,-1495.091875128,417],[0,-0.013816852,0.999904543,0],[-1,0,0,0],[9E+09,9E+09,9E+09,9E+09,9E+09,9E+09]];
	VAR robtarget P96A_3:=[[1097.081571019,-1495.086474167,417.00000407],[0,-0.013816852,0.999904543,0],[-1,0,0,0],[9E+09,9E+09,9E+09,9E+09,9E+09,9E+09]];
	VAR robtarget P96B_3:=[[1022.393358608,-1495.086796583,416.999659262],[0,-0.013816852,0.999904543,0],[-1,0,0,0],[9E+09,9E+09,9E+09,9E+09,9E+09,9E+09]];
	VAR robtarget P101A_3:=[[2448.558,-1508.71287807,663.963307331],[0.703573055,-0.001094812,0.710617996,0.002412825],[-1,-1,1,1],[9E+09,9E+09,9E+09,9E+09,9E+09,9E+09]];
	VAR robtarget P101B_3:=[[2372.863,-1508.71287807,663.963307331],[0.703573055,-0.001094812,0.710617996,0.002412825],[-1,-1,1,1],[9E+09,9E+09,9E+09,9E+09,9E+09,9E+09]];
	VAR robtarget P102A_3:=[[2252,-1495.091875128,297],[0,-0.013816852,0.999904543,0],[-1,-1,1,0],[9E+09,9E+09,9E+09,9E+09,9E+09,9E+09]];
	VAR robtarget P102B_3:=[[2175,-1495.091875128,297],[0,-0.013816852,0.999904543,0],[-1,-1,1,0],[9E+09,9E+09,9E+09,9E+09,9E+09,9E+09]];
	VAR robtarget P103A_3:=[[1985,-1495.091875128,297],[0,-0.013816852,0.999904543,0],[-1,-1,1,0],[9E+09,9E+09,9E+09,9E+09,9E+09,9E+09]];
	VAR robtarget P103B_3:=[[1870,-1495.091875128,297],[0,-0.013816852,0.999904543,0],[-1,-1,1,0],[9E+09,9E+09,9E+09,9E+09,9E+09,9E+09]];
	VAR robtarget P104A_3:=[[1680,-1495.091875128,297],[0,-0.013816852,0.999904543,0],[-1,0,0,0],[9E+09,9E+09,9E+09,9E+09,9E+09,9E+09]];
	VAR robtarget P104B_3:=[[1575,-1495.091875128,297],[0,-0.013816852,0.999904543,0],[-1,0,0,0],[9E+09,9E+09,9E+09,9E+09,9E+09,9E+09]];
	VAR robtarget P105A_3:=[[1405,-1495.091875128,297],[0,-0.013816852,0.999904543,0],[-1,0,0,0],[9E+09,9E+09,9E+09,9E+09,9E+09,9E+09]];
	VAR robtarget P105B_3:=[[1300,-1495.091875128,297],[0,-0.013816852,0.999904543,0],[-1,0,0,0],[9E+09,9E+09,9E+09,9E+09,9E+09,9E+09]];
	VAR robtarget P106A_3:=[[1120,-1495.091875128,297],[0,-0.013816852,0.999904543,0],[-1,0,0,0],[9E+09,9E+09,9E+09,9E+09,9E+09,9E+09]];
	VAR robtarget P106B_3:=[[1022.393704997,-1495.086474167,297.00000407],[0,-0.013816852,0.999904543,0],[-1,0,0,0],[9E+09,9E+09,9E+09,9E+09,9E+09,9E+09]];
	VAR robtarget P111A_3:=[[2448.558,-1508.71287807,543.963307331],[0.703573055,-0.001094812,0.710617996,0.002412825],[-1,-1,1,1],[9E+09,9E+09,9E+09,9E+09,9E+09,9E+09]];
	VAR robtarget P111B_3:=[[2372.863,-1508.71287807,543.963307331],[0.703573055,-0.001094812,0.710617996,0.002412825],[-1,-1,1,1],[9E+09,9E+09,9E+09,9E+09,9E+09,9E+09]];
	VAR robtarget P112A_3:=[[2252,-1495.091875128,177],[0,-0.013816852,0.999904543,0],[-1,-1,1,0],[9E+09,9E+09,9E+09,9E+09,9E+09,9E+09]];
	VAR robtarget P112B_3:=[[2175,-1495.091875128,177],[0,-0.013816852,0.999904543,0],[-1,-1,1,0],[9E+09,9E+09,9E+09,9E+09,9E+09,9E+09]];
	VAR robtarget P113A_3:=[[1985,-1495.091875128,177],[0,-0.013816852,0.999904543,0],[-1,-1,1,0],[9E+09,9E+09,9E+09,9E+09,9E+09,9E+09]];
	VAR robtarget P113B_3:=[[1870,-1495.091875128,177],[0,-0.013816852,0.999904543,0],[-1,-1,1,0],[9E+09,9E+09,9E+09,9E+09,9E+09,9E+09]];
	VAR robtarget P114A_3:=[[1680,-1495.091875128,177],[0,-0.013816852,0.999904543,0],[-1,0,0,0],[9E+09,9E+09,9E+09,9E+09,9E+09,9E+09]];
	VAR robtarget P114B_3:=[[1575,-1495.091875128,177],[0,-0.013816852,0.999904543,0],[-1,0,0,0],[9E+09,9E+09,9E+09,9E+09,9E+09,9E+09]];
	VAR robtarget P115A_3:=[[1405,-1495.091875128,177],[0,-0.013816852,0.999904543,0],[-1,0,0,0],[9E+09,9E+09,9E+09,9E+09,9E+09,9E+09]];
	VAR robtarget P115B_3:=[[1300,-1495.091875128,177],[0,-0.013816852,0.999904543,0],[-1,0,0,0],[9E+09,9E+09,9E+09,9E+09,9E+09,9E+09]];
	VAR robtarget P116A_3:=[[1120,-1495.091875128,177],[0,-0.013816852,0.999904543,0],[-1,0,0,0],[9E+09,9E+09,9E+09,9E+09,9E+09,9E+09]];
	VAR robtarget P116B_3:=[[1022.393704732,-1495.086782302,177.000347698],[0,-0.013816852,0.999904543,0],[-1,0,0,0],[9E+09,9E+09,9E+09,9E+09,9E+09,9E+09]];
	VAR robtarget P121A_3:=[[2448.558,-1501.842138429,270.446964194],[0.378075011,-0.001934823,0.925771174,0.001810193],[-1,-1,1,1],[9E+09,9E+09,9E+09,9E+09,9E+09,9E+09]];
	VAR robtarget P121B_3:=[[2372.863,-1508.71287807,423.963307331],[0.703573055,-0.001094812,0.710617996,0.002412825],[-1,-1,1,1],[9E+09,9E+09,9E+09,9E+09,9E+09,9E+09]];
	VAR robtarget P122A_3:=[[2252,-1495.091875128,57],[0,-0.013816852,0.999904543,0],[-1,-1,1,0],[9E+09,9E+09,9E+09,9E+09,9E+09,9E+09]];
	VAR robtarget P122B_3:=[[2175,-1495.091875128,57],[0,-0.013816852,0.999904543,0],[-1,-1,1,0],[9E+09,9E+09,9E+09,9E+09,9E+09,9E+09]];
	VAR robtarget P123A_3:=[[1985,-1495.091875128,57],[0,-0.013816852,0.999904543,0],[-1,-1,1,0],[9E+09,9E+09,9E+09,9E+09,9E+09,9E+09]];
	VAR robtarget P123B_3:=[[1870,-1495.091875128,57],[0,-0.013816852,0.999904543,0],[-1,-1,1,0],[9E+09,9E+09,9E+09,9E+09,9E+09,9E+09]];
	VAR robtarget P124A_3:=[[1680,-1495.091875128,57],[0,-0.013816852,0.999904543,0],[-1,0,0,0],[9E+09,9E+09,9E+09,9E+09,9E+09,9E+09]];
	VAR robtarget P124B_3:=[[1575,-1495.091875128,57],[0,-0.013816852,0.999904543,0],[-1,0,0,0],[9E+09,9E+09,9E+09,9E+09,9E+09,9E+09]];
	VAR robtarget P125A_3:=[[1405,-1495.091875128,57],[0,-0.013816852,0.999904543,0],[-1,0,0,0],[9E+09,9E+09,9E+09,9E+09,9E+09,9E+09]];
	VAR robtarget P125B_3:=[[1300,-1495.091875128,57],[0,-0.013816852,0.999904543,0],[-1,0,0,0],[9E+09,9E+09,9E+09,9E+09,9E+09,9E+09]];
	VAR robtarget P126A_3:=[[1120,-1495.091875128,57],[0,-0.013816852,0.999904543,0],[-1,0,0,0],[9E+09,9E+09,9E+09,9E+09,9E+09,9E+09]];
	VAR robtarget P126B_3:=[[1015,-1495.091875128,57],[0,-0.013816852,0.999904543,0],[-1,0,0,0],[9E+09,9E+09,9E+09,9E+09,9E+09,9E+09]];
	VAR robtarget P131A_3:=[[2447.852000131,-1508.761293234,281.66531193],[0.604799628,-0.001400382,0.796373273,0.002249281],[-1,-1,1,1],[9E+09,9E+09,9E+09,9E+09,9E+09,9E+09]];
	VAR robtarget P131B_3:=[[2360,-1507.440486304,303.963307331],[0.638961308,-0.001300937,0.769234312,0.002308225],[-1,-1,1,1],[9E+09,9E+09,9E+09,9E+09,9E+09,9E+09]];
	VAR robtarget P132A_3:=[[2252,-1495.091875128,-63],[0.043615223,-0.013803702,0.998952855,0.000602683],[-1,-1,1,0],[9E+09,9E+09,9E+09,9E+09,9E+09,9E+09]];
    	VAR robtarget P132B_3:=[[2175,-1495.091875128,-63],[0,-0.013816852,0.999904543,0],[-1,-1,1,0],[9E+09,9E+09,9E+09,9E+09,9E+09,9E+09]];
	VAR robtarget P133A_3:=[[1985,-1495.091875128,-63],[0,-0.013816852,0.999904543,0],[-1,-1,1,0],[9E+09,9E+09,9E+09,9E+09,9E+09,9E+09]];
	VAR robtarget P133B_3:=[[1870,-1495.091875128,-63],[0,-0.013816852,0.999904543,0],[-1,-1,1,0],[9E+09,9E+09,9E+09,9E+09,9E+09,9E+09]];
	VAR robtarget P134A_3:=[[1680,-1495.091875128,-63],[0,-0.013816852,0.999904543,0],[-1,0,0,0],[9E+09,9E+09,9E+09,9E+09,9E+09,9E+09]];
	VAR robtarget P134B_3:=[[1575,-1495.091875128,-63],[0,-0.013816852,0.999904543,0],[-1,0,0,0],[9E+09,9E+09,9E+09,9E+09,9E+09,9E+09]];
	VAR robtarget P135A_3:=[[1405,-1495.091875128,-63],[0,-0.013816852,0.999904543,0],[-1,0,0,0],[9E+09,9E+09,9E+09,9E+09,9E+09,9E+09]];
	VAR robtarget P135B_3:=[[1300,-1495.091875128,-63],[0,-0.013816852,0.999904543,0],[-1,0,0,0],[9E+09,9E+09,9E+09,9E+09,9E+09,9E+09]];
	VAR robtarget P142A_3:=[[2252,-1493.694872936,-159.833924839],[0.087147423,-0.013764275,0.996099604,0.001204218],[-1,-1,1,0],[9E+09,9E+09,9E+09,9E+09,9E+09,9E+09]];
	VAR robtarget P142B_3:=[[2175,-1495.091875128,-180],[0,-0.013816852,0.999904543,0],[-1,-1,1,0],[9E+09,9E+09,9E+09,9E+09,9E+09,9E+09]];
	VAR robtarget P143A_3:=[[1985,-1495.091875128,-180],[0,-0.013816852,0.999904543,0],[-1,-1,1,0],[9E+09,9E+09,9E+09,9E+09,9E+09,9E+09]];
	VAR robtarget P143B_3:=[[1870,-1495.091875128,-180],[0,-0.013816852,0.999904543,0],[-1,-1,1,0],[9E+09,9E+09,9E+09,9E+09,9E+09,9E+09]];
	VAR robtarget P144A_3:=[[1680,-1495.091875128,-180],[0,-0.013816852,0.999904543,0],[-1,0,0,0],[9E+09,9E+09,9E+09,9E+09,9E+09,9E+09]];
	VAR robtarget P144B_3:=[[1575,-1495.091875128,-180],[0,-0.013816852,0.999904543,0],[-1,0,0,0],[9E+09,9E+09,9E+09,9E+09,9E+09,9E+09]];
	VAR robtarget P145A_3:=[[1405,-1495.091875128,-180],[0,-0.013816852,0.999904543,0],[-1,0,0,0],[9E+09,9E+09,9E+09,9E+09,9E+09,9E+09]];
	VAR robtarget P145B_3:=[[1300,-1495.091875128,-180],[0,-0.013816852,0.999904543,0],[-1,0,0,0],[9E+09,9E+09,9E+09,9E+09,9E+09,9E+09]];
	VAR robtarget P11B_3_2:=[[2372,-63.024,1748.15],[0.703571521,-0.001093139,0.710619521,0.002411754],[-1,-1,1,1],[9E+09,9E+09,9E+09,9E+09,9E+09,9E+09]];
	VAR robtarget P12A_3_2:=[[2187,-63.023,1745],[0.703571521,-0.001093139,0.710619521,0.002411754],[-1,-1,1,1],[9E+09,9E+09,9E+09,9E+09,9E+09,9E+09]];
	VAR robtarget P12B_3_2:=[[2082,-63.023,1745.129],[0.703571521,-0.001093139,0.710619521,0.002411754],[-1,-1,1,1],[9E+09,9E+09,9E+09,9E+09,9E+09,9E+09]];
	VAR robtarget P13A_3_2:=[[1892,-63.023,1744.15],[0.703571521,-0.001093139,0.710619521,0.002411754],[-1,-1,1,1],[9E+09,9E+09,9E+09,9E+09,9E+09,9E+09]];
	VAR robtarget P13B_3_2:=[[1787,-63.023,1745],[0.703571521,-0.001093139,0.710619521,0.002411754],[-1,-1,1,1],[9E+09,9E+09,9E+09,9E+09,9E+09,9E+09]];
	VAR robtarget P14A_3_2:=[[1680,-58.605519575,1377],[0,-0.013816852,0.999904543,0],[-1,0,-1,0],[9E+09,9E+09,9E+09,9E+09,9E+09,9E+09]];
	VAR robtarget P14B_3_2:=[[1575,-58.605519575,1377],[0,-0.013816852,0.999904543,0],[-1,0,-1,0],[9E+09,9E+09,9E+09,9E+09,9E+09,9E+09]];
	VAR robtarget P15B_3_2:=[[1300,-58.608006371,1377],[0,-0.013816852,0.999904543,0],[-1,0,-1,0],[9E+09,9E+09,9E+09,9E+09,9E+09,9E+09]];
	VAR robtarget P15A_3_2:=[[1405,-58.608006371,1377],[0,-0.013816852,0.999904543,0],[-1,0,-1,0],[9E+09,9E+09,9E+09,9E+09,9E+09,9E+09]];
	VAR robtarget P16A_3_2:=[[1105,-58.608006371,1377],[0,-0.013816852,0.999904543,0],[-1,0,-1,0],[9E+09,9E+09,9E+09,9E+09,9E+09,9E+09]];
	VAR robtarget P16B_3_2:=[[1015,-58.608006371,1377],[0,-0.013816852,0.999904543,0],[-1,0,-1,0],[9E+09,9E+09,9E+09,9E+09,9E+09,9E+09]];
	VAR robtarget P14A_3_3:=[[1680,-600.605519575,1377],[0,-0.013816852,0.999904543,0],[-1,0,-1,0],[9E+09,9E+09,9E+09,9E+09,9E+09,9E+09]];
	VAR robtarget P14B_3_3:=[[1575,-758.605519575,1377],[0,-0.013816852,0.999904543,0],[-1,0,-1,0],[9E+09,9E+09,9E+09,9E+09,9E+09,9E+09]];
	VAR robtarget P15B_3_3:=[[1300,-758.608006371,1377],[0,-0.013816852,0.999904543,0],[-1,0,-1,0],[9E+09,9E+09,9E+09,9E+09,9E+09,9E+09]];
	VAR robtarget P15A_3_3:=[[1405,-600.605519575,1377],[0,-0.013816852,0.999904543,0],[-1,0,-1,0],[9E+09,9E+09,9E+09,9E+09,9E+09,9E+09]];
	VAR robtarget P16A_3_3:=[[1120,-600,1377],[0,-0.013816852,0.999904543,0],[-1,0,-1,0],[9E+09,9E+09,9E+09,9E+09,9E+09,9E+09]];
	VAR robtarget P16B_3_3:=[[1015,-758.608006371,1377],[0,-0.013816852,0.999904543,0],[-1,0,-1,0],[9E+09,9E+09,9E+09,9E+09,9E+09,9E+09]];
    	VAR robtarget P21A_3_2:=[[2362.214,-63.023,1625],[0.703571521,-0.001093139,0.710619521,0.002411754],[-1,-1,1,1],[9E+09,9E+09,9E+09,9E+09,9E+09,9E+09]];
	VAR robtarget P21B_3_2:=[[2372.862,-63.023,1625],[0.703571521,-0.001093139,0.710619521,0.002411754],[-1,-1,1,1],[9E+09,9E+09,9E+09,9E+09,9E+09,9E+09]];
	VAR robtarget P22A_3_2:=[[2187,-63.023,1625],[0.703571521,-0.001093139,0.710619521,0.002411754],[-1,-1,1,1],[9E+09,9E+09,9E+09,9E+09,9E+09,9E+09]];
	VAR robtarget P22B_3_2:=[[2082,-63.023,1625],[0.703571521,-0.001093139,0.710619521,0.002411754],[-1,-1,1,1],[9E+09,9E+09,9E+09,9E+09,9E+09,9E+09]];
	VAR robtarget P23A_3_2:=[[1892,-63.023,1625],[0.703571521,-0.001093139,0.710619521,0.002411754],[-1,-1,1,1],[9E+09,9E+09,9E+09,9E+09,9E+09,9E+09]];
	VAR robtarget P23B_3_2:=[[1787,-63.023,1625],[0.703571521,-0.001093139,0.710619521,0.002411754],[-1,-1,1,1],[9E+09,9E+09,9E+09,9E+09,9E+09,9E+09]];
	VAR robtarget P24A_3_2:=[[1680,-58.608006371,1257],[0,-0.013816852,0.999904543,0],[-1,0,-1,0],[9E+09,9E+09,9E+09,9E+09,9E+09,9E+09]];
	VAR robtarget P24B_3_2:=[[1575,-58.608006371,1257],[0,-0.013816852,0.999904543,0],[-1,0,1,0],[9E+09,9E+09,9E+09,9E+09,9E+09,9E+09]];
	VAR robtarget P25A_3_2:=[[1405,-58.608006371,1257],[0,-0.013816852,0.999904543,0],[-1,0,-1,0],[9E+09,9E+09,9E+09,9E+09,9E+09,9E+09]];
	VAR robtarget P25B_3_2:=[[1300,-58.608006371,1257],[0,-0.013816852,0.999904543,0],[-1,0,-1,0],[9E+09,9E+09,9E+09,9E+09,9E+09,9E+09]];
	VAR robtarget P26A_3_2:=[[1120,-58.608006371,1257],[0,-0.013816852,0.999904543,0],[-1,0,-1,0],[9E+09,9E+09,9E+09,9E+09,9E+09,9E+09]];
	VAR robtarget P26B_3_2:=[[1015,-58.608006371,1257],[0,-0.013816852,0.999904543,0],[-1,0,-1,0],[9E+09,9E+09,9E+09,9E+09,9E+09,9E+09]];
	VAR robtarget P24A_3_3:=[[1680,-758.608006371,1257],[0,-0.013816852,0.999904543,0],[-1,0,1,0],[9E+09,9E+09,9E+09,9E+09,9E+09,9E+09]];
	VAR robtarget P24B_3_3:=[[1575,-758.608006371,1257],[0,-0.013816852,0.999904543,0],[-1,0,1,0],[9E+09,9E+09,9E+09,9E+09,9E+09,9E+09]];
	VAR robtarget P25A_3_3:=[[1405,-758.608006371,1257],[0,-0.013816852,0.999904543,0],[-1,0,-1,0],[9E+09,9E+09,9E+09,9E+09,9E+09,9E+09]];
	VAR robtarget P25B_3_3:=[[1300,-758.608006371,1257],[0,-0.013816852,0.999904543,0],[-1,0,-1,0],[9E+09,9E+09,9E+09,9E+09,9E+09,9E+09]];
	VAR robtarget P26A_3_3:=[[1120,-758.608006371,1257],[0,-0.013816852,0.999904543,0],[-1,0,-1,0],[9E+09,9E+09,9E+09,9E+09,9E+09,9E+09]];
	VAR robtarget P26B_3_3:=[[1015,-758.608006371,1257],[0,-0.013816852,0.999904543,0],[-1,0,-1,0],[9E+09,9E+09,9E+09,9E+09,9E+09,9E+09]];
    	VAR robtarget P31A_3_2:=[[2362.214,-63.023,1505],[0.703571521,-0.001093139,0.710619521,0.002411754],[-1,-1,1,1],[9E+09,9E+09,9E+09,9E+09,9E+09,9E+09]];
	VAR robtarget P31B_3_2:=[[2372.862,-63.023,1505],[0.703571521,-0.001093139,0.710619521,0.002411754],[-1,-1,1,1],[9E+09,9E+09,9E+09,9E+09,9E+09,9E+09]];
	VAR robtarget P32A_3_2:=[[2187,-63.023,1505],[0.703571521,-0.001093139,0.710619521,0.002411754],[-1,-1,1,1],[9E+09,9E+09,9E+09,9E+09,9E+09,9E+09]];
	VAR robtarget P32B_3_2:=[[2082,-63.023,1505],[0.703571521,-0.001093139,0.710619521,0.002411754],[-1,-1,1,1],[9E+09,9E+09,9E+09,9E+09,9E+09,9E+09]];
	VAR robtarget P33A_3_2:=[[1892,-63.023,1505.041],[0.703571521,-0.001093139,0.710619521,0.002411754],[-1,-1,1,1],[9E+09,9E+09,9E+09,9E+09,9E+09,9E+09]];
	VAR robtarget P33B_3_2:=[[1787,-63.023,1505.149],[0.703571521,-0.001093139,0.710619521,0.002411754],[-1,-1,1,1],[9E+09,9E+09,9E+09,9E+09,9E+09,9E+09]];
	VAR robtarget P34A_3_2:=[[1680,-58.608006371,1137],[0,-0.013816852,0.999904543,0],[-1,0,0,0],[9E+09,9E+09,9E+09,9E+09,9E+09,9E+09]];
	VAR robtarget P34B_3_2:=[[1575,-58.608006371,1137],[0,-0.013816852,0.999904543,0],[-1,0,0,0],[9E+09,9E+09,9E+09,9E+09,9E+09,9E+09]];
	VAR robtarget P35A_3_2:=[[1405,-58.608006371,1137],[0,-0.013816852,0.999904543,0],[-1,0,0,0],[9E+09,9E+09,9E+09,9E+09,9E+09,9E+09]];
	VAR robtarget P35B_3_2:=[[1300,-58.608006371,1137],[0,-0.013816852,0.999904543,0],[-1,0,0,0],[9E+09,9E+09,9E+09,9E+09,9E+09,9E+09]];
	VAR robtarget P36A_3_2:=[[1120,-58.608006371,1137],[0,-0.013816852,0.999904543,0],[-1,0,0,0],[9E+09,9E+09,9E+09,9E+09,9E+09,9E+09]];
	VAR robtarget P36B_3_2:=[[1015,-58.608006371,1137],[0,-0.013816852,0.999904543,0],[-1,0,0,0],[9E+09,9E+09,9E+09,9E+09,9E+09,9E+09]];
	VAR robtarget P34A_3_3:=[[1680,-758.608006371,1137],[0,-0.013816852,0.999904543,0],[-1,0,0,0],[9E+09,9E+09,9E+09,9E+09,9E+09,9E+09]];
	VAR robtarget P34B_3_3:=[[1575,-758.608006371,1137],[0,-0.013816852,0.999904543,0],[-1,0,0,0],[9E+09,9E+09,9E+09,9E+09,9E+09,9E+09]];
	VAR robtarget P35A_3_3:=[[1405,-758.608006371,1137],[0,-0.013816852,0.999904543,0],[-1,0,0,0],[9E+09,9E+09,9E+09,9E+09,9E+09,9E+09]];
	VAR robtarget P35B_3_3:=[[1300,-758.608006371,1137],[0,-0.013816852,0.999904543,0],[-1,0,0,0],[9E+09,9E+09,9E+09,9E+09,9E+09,9E+09]];
	VAR robtarget P36A_3_3:=[[1120,-758.608006371,1137],[0,-0.013816852,0.999904543,0],[-1,0,0,0],[9E+09,9E+09,9E+09,9E+09,9E+09,9E+09]];
	VAR robtarget P36B_3_3:=[[1015,-758.608006371,1137],[0,-0.013816852,0.999904543,0],[-1,0,0,0],[9E+09,9E+09,9E+09,9E+09,9E+09,9E+09]];
    	VAR robtarget P41A_3_2:=[[2362.214,-63.023,1385],[0.703571521,-0.001093139,0.710619521,0.002411754],[-1,-1,1,1],[9E+09,9E+09,9E+09,9E+09,9E+09,9E+09]];
	VAR robtarget P41B_3_2:=[[2372,-63.023,1385],[0.703571521,-0.001093139,0.710619521,0.002411754],[-1,-1,1,1],[9E+09,9E+09,9E+09,9E+09,9E+09,9E+09]];
	VAR robtarget P42A_3_2:=[[2187,-63.023,1385],[0.703571521,-0.001093139,0.710619521,0.002411754],[-1,-1,1,1],[9E+09,9E+09,9E+09,9E+09,9E+09,9E+09]];
	VAR robtarget P42B_3_2:=[[2082,-63.023,1385],[0.703571521,-0.001093139,0.710619521,0.002411754],[-1,-1,1,1],[9E+09,9E+09,9E+09,9E+09,9E+09,9E+09]];
	VAR robtarget P43A_3_2:=[[1892,-58.608006371,1017],[0,-0.013816852,0.999904543,0],[-1,0,1,0],[9E+09,9E+09,9E+09,9E+09,9E+09,9E+09]];
	VAR robtarget P43B_3_2:=[[1787,-58.608006371,1017],[0,-0.013816852,0.999904543,0],[-1,0,1,0],[9E+09,9E+09,9E+09,9E+09,9E+09,9E+09]];
	VAR robtarget P44A_3_2:=[[1680,-62.102853375,1017],[0,-0.013816852,0.999904543,0],[-1,0,0,0],[9E+09,9E+09,9E+09,9E+09,9E+09,9E+09]];
	VAR robtarget P44B_3_2:=[[1575,-58.608006371,1017],[0,-0.013816852,0.999904543,0],[-1,0,0,0],[9E+09,9E+09,9E+09,9E+09,9E+09,9E+09]];
	VAR robtarget P45A_3_2:=[[1405,-58.608006371,1017],[0,-0.013816852,0.999904543,0],[-1,0,0,0],[9E+09,9E+09,9E+09,9E+09,9E+09,9E+09]];
	VAR robtarget P45B_3_2:=[[1300,-58.608006371,1017],[0,-0.013816852,0.999904543,0],[-1,0,0,0],[9E+09,9E+09,9E+09,9E+09,9E+09,9E+09]];
	VAR robtarget P46A_3_2:=[[1120,-58.608006371,1017],[0,-0.013816852,0.999904543,0],[-1,0,0,0],[9E+09,9E+09,9E+09,9E+09,9E+09,9E+09]];
	VAR robtarget P46B_3_2:=[[1015,-58.608006371,1017],[0,-0.013816852,0.999904543,0],[-1,0,0,0],[9E+09,9E+09,9E+09,9E+09,9E+09,9E+09]];
	VAR robtarget P43A_3_3:=[[1892,-600,1017],[0,-0.013816852,0.999904543,0],[-1,0,1,0],[9E+09,9E+09,9E+09,9E+09,9E+09,9E+09]];
	VAR robtarget P43B_3_3:=[[1787,-758.608006371,1017],[0,-0.013816852,0.999904543,0],[-1,0,1,0],[9E+09,9E+09,9E+09,9E+09,9E+09,9E+09]];
	VAR robtarget P44A_3_3:=[[1680,-758.102853375,1017],[0,-0.013816852,0.999904543,0],[-1,0,0,0],[9E+09,9E+09,9E+09,9E+09,9E+09,9E+09]];
	VAR robtarget P44B_3_3:=[[1575,-758.608006371,1017],[0,-0.013816852,0.999904543,0],[-1,0,0,0],[9E+09,9E+09,9E+09,9E+09,9E+09,9E+09]];
	VAR robtarget P45A_3_3:=[[1405,-758.608006371,1017],[0,-0.013816852,0.999904543,0],[-1,0,0,0],[9E+09,9E+09,9E+09,9E+09,9E+09,9E+09]];
	VAR robtarget P45B_3_3:=[[1300,-758.608006371,1017],[0,-0.013816852,0.999904543,0],[-1,0,0,0],[9E+09,9E+09,9E+09,9E+09,9E+09,9E+09]];
	VAR robtarget P46A_3_3:=[[1120,-758.608006371,1017],[0,-0.013816852,0.999904543,0],[-1,0,0,0],[9E+09,9E+09,9E+09,9E+09,9E+09,9E+09]];
	VAR robtarget P46B_3_3:=[[1015,-758.608006371,1017],[0,-0.013816852,0.999904543,0],[-1,0,0,0],[9E+09,9E+09,9E+09,9E+09,9E+09,9E+09]];
    	VAR robtarget P51A_3_2:=[[2362.214,-69.924190602,1264.368672041],[0.703571521,-0.001093139,0.710619521,0.002411754],[-1,-1,1,1],[9E+09,9E+09,9E+09,9E+09,9E+09,9E+09]];
	VAR robtarget P51B_3_2:=[[2372,-63.023,1265],[0.703571521,-0.001093139,0.710619521,0.002411754],[-1,-1,1,1],[9E+09,9E+09,9E+09,9E+09,9E+09,9E+09]];
	VAR robtarget P52A_3_2:=[[2187,-63.023,1265],[0.703571521,-0.001093139,0.710619521,0.002411754],[-1,-1,1,1],[9E+09,9E+09,9E+09,9E+09,9E+09,9E+09]];
	VAR robtarget P52B_3_2:=[[2082,-63.023,1265],[0.703571521,-0.001093139,0.710619521,0.002411754],[-1,-1,1,1],[9E+09,9E+09,9E+09,9E+09,9E+09,9E+09]];
	VAR robtarget P53A_3_2:=[[1892,-58.608006371,897],[0,-0.013816852,0.999904543,0],[-1,-1,1,0],[9E+09,9E+09,9E+09,9E+09,9E+09,9E+09]];
	VAR robtarget P53B_3_2:=[[1787,-58.608006371,897],[0,-0.013816852,0.999904543,0],[-1,-1,1,0],[9E+09,9E+09,9E+09,9E+09,9E+09,9E+09]];
	VAR robtarget P54A_3_2:=[[1680,-58.608006371,897],[0,-0.013816852,0.999904543,0],[-1,0,0,0],[9E+09,9E+09,9E+09,9E+09,9E+09,9E+09]];
	VAR robtarget P54B_3_2:=[[1575,-58.608006371,897],[0,-0.013816852,0.999904543,0],[-1,0,0,0],[9E+09,9E+09,9E+09,9E+09,9E+09,9E+09]];
	VAR robtarget P55A_3_2:=[[1405,-58.608006371,897],[0,-0.013816852,0.999904543,0],[-1,0,0,0],[9E+09,9E+09,9E+09,9E+09,9E+09,9E+09]];
	VAR robtarget P55B_3_2:=[[1300,-58.608006371,897],[0,-0.013816852,0.999904543,0],[-1,0,0,0],[9E+09,9E+09,9E+09,9E+09,9E+09,9E+09]];
	VAR robtarget P56A_3_2:=[[1120,-58.608006371,897],[0,-0.013816852,0.999904543,0],[-1,0,0,0],[9E+09,9E+09,9E+09,9E+09,9E+09,9E+09]];
	VAR robtarget P56B_3_2:=[[1015,-58.608006371,897],[0,-0.013816852,0.999904543,0],[-1,0,0,0],[9E+09,9E+09,9E+09,9E+09,9E+09,9E+09]];
	VAR robtarget P53A_3_3:=[[1892,-758.608006371,897],[0,-0.013816852,0.999904543,0],[-1,-1,1,0],[9E+09,9E+09,9E+09,9E+09,9E+09,9E+09]];
	VAR robtarget P53B_3_3:=[[1787,-758.608006371,897],[0,-0.013816852,0.999904543,0],[-1,-1,1,0],[9E+09,9E+09,9E+09,9E+09,9E+09,9E+09]];
	VAR robtarget P54A_3_3:=[[1680,-758.608006371,897],[0,-0.013816852,0.999904543,0],[-1,0,0,0],[9E+09,9E+09,9E+09,9E+09,9E+09,9E+09]];
	VAR robtarget P54B_3_3:=[[1575,-758.608006371,897],[0,-0.013816852,0.999904543,0],[-1,0,0,0],[9E+09,9E+09,9E+09,9E+09,9E+09,9E+09]];
	VAR robtarget P55A_3_3:=[[1405,-758.608006371,897],[0,-0.013816852,0.999904543,0],[-1,0,0,0],[9E+09,9E+09,9E+09,9E+09,9E+09,9E+09]];
	VAR robtarget P55B_3_3:=[[1300,-758.608006371,897],[0,-0.013816852,0.999904543,0],[-1,0,0,0],[9E+09,9E+09,9E+09,9E+09,9E+09,9E+09]];
	VAR robtarget P56A_3_3:=[[1120,-758.608006371,897],[0,-0.013816852,0.999904543,0],[-1,0,0,0],[9E+09,9E+09,9E+09,9E+09,9E+09,9E+09]];
	VAR robtarget P56B_3_3:=[[1015,-758.608006371,897],[0,-0.013816852,0.999904543,0],[-1,0,0,0],[9E+09,9E+09,9E+09,9E+09,9E+09,9E+09]];
    	VAR robtarget P61A_3_2:=[[2362.214,-63.023,1145],[0.703571521,-0.001093139,0.710619521,0.002411754],[-1,-1,1,1],[9E+09,9E+09,9E+09,9E+09,9E+09,9E+09]];
	VAR robtarget P61B_3_2:=[[2372,-63.023,1145],[0.703571521,-0.001093139,0.710619521,0.002411754],[-1,-1,1,1],[9E+09,9E+09,9E+09,9E+09,9E+09,9E+09]];
	VAR robtarget P62A_3_2:=[[2187,-63.060957273,1144.212831914],[0.703573055,-0.001094812,0.710617996,0.002412825],[-1,-1,1,1],[9E+09,9E+09,9E+09,9E+09,9E+09,9E+09]];
	VAR robtarget P62B_3_2:=[[2082,-63.060957273,1144.212831914],[0.703573055,-0.001094812,0.710617996,0.002412825],[-1,-1,1,1],[9E+09,9E+09,9E+09,9E+09,9E+09,9E+09]];
	VAR robtarget P63A_3_2:=[[1892,-58.608006371,777],[0,-0.013816852,0.999904543,0],[-1,-1,1,0],[9E+09,9E+09,9E+09,9E+09,9E+09,9E+09]];
	VAR robtarget P63B_3_2:=[[1787,-58.608006371,777],[0,-0.013816852,0.999904543,0],[-1,-1,1,0],[9E+09,9E+09,9E+09,9E+09,9E+09,9E+09]];
	VAR robtarget P64A_3_2:=[[1680,-58.608006371,777],[0,-0.013816852,0.999904543,0],[-1,-1,1,0],[9E+09,9E+09,9E+09,9E+09,9E+09,9E+09]];
	VAR robtarget P64B_3_2:=[[1575,-58.608006371,777],[0,-0.013816852,0.999904543,0],[-1,-1,1,0],[9E+09,9E+09,9E+09,9E+09,9E+09,9E+09]];
	VAR robtarget P65A_3_2:=[[1405,-58.608006371,777],[0,-0.013816852,0.999904543,0],[-1,0,0,0],[9E+09,9E+09,9E+09,9E+09,9E+09,9E+09]];
	VAR robtarget P65B_3_2:=[[1300,-58.608006371,777],[0,-0.013816852,0.999904543,0],[-1,0,0,0],[9E+09,9E+09,9E+09,9E+09,9E+09,9E+09]];
	VAR robtarget P66A_3_2:=[[1120,-58.608006371,777],[0,-0.013816852,0.999904543,0],[-1,0,0,0],[9E+09,9E+09,9E+09,9E+09,9E+09,9E+09]];
	VAR robtarget P66B_3_2:=[[1015,-58.608006371,777],[0,-0.013816852,0.999904543,0],[-1,0,0,0],[9E+09,9E+09,9E+09,9E+09,9E+09,9E+09]];
	VAR robtarget P63A_3_3:=[[1892,-758.608006371,777],[0,-0.013816852,0.999904543,0],[-1,-1,1,0],[9E+09,9E+09,9E+09,9E+09,9E+09,9E+09]];
	VAR robtarget P63B_3_3:=[[1787,-758.608006371,777],[0,-0.013816852,0.999904543,0],[-1,-1,1,0],[9E+09,9E+09,9E+09,9E+09,9E+09,9E+09]];
	VAR robtarget P64A_3_3:=[[1680,-758.608006371,777],[0,-0.013816852,0.999904543,0],[-1,0,-1,0],[9E+09,9E+09,9E+09,9E+09,9E+09,9E+09]];
	VAR robtarget P64B_3_3:=[[1575,-758.608006371,777],[0,-0.013816852,0.999904543,0],[-1,0,-1,0],[9E+09,9E+09,9E+09,9E+09,9E+09,9E+09]];
	VAR robtarget P65A_3_3:=[[1405,-758.608006371,777],[0,-0.013816852,0.999904543,0],[-1,0,-1,0],[9E+09,9E+09,9E+09,9E+09,9E+09,9E+09]];
	VAR robtarget P65B_3_3:=[[1300,-758.608006371,777],[0,-0.013816852,0.999904543,0],[-1,0,-1,0],[9E+09,9E+09,9E+09,9E+09,9E+09,9E+09]];
	VAR robtarget P66A_3_3:=[[1120,-758.608006371,777],[0,-0.013816852,0.999904543,0],[-1,0,-1,0],[9E+09,9E+09,9E+09,9E+09,9E+09,9E+09]];
	VAR robtarget P66B_3_3:=[[1015,-758.608006371,777],[0,-0.013816852,0.999904543,0],[-1,0,-1,0],[9E+09,9E+09,9E+09,9E+09,9E+09,9E+09]];
    	VAR robtarget P71A_3_2:=[[2362.214,-63.060957273,1024.212831914],[0.703573055,-0.001094812,0.710617996,0.002412825],[-1,-1,1,1],[9E+09,9E+09,9E+09,9E+09,9E+09,9E+09]];
	VAR robtarget P71B_3_2:=[[2372,-63.060957273,1024.212831914],[0.703573055,-0.001094812,0.710617996,0.002412825],[-1,-1,1,1],[9E+09,9E+09,9E+09,9E+09,9E+09,9E+09]];
	VAR robtarget P72A_3_2:=[[2187,-63.060957273,1024.212831914],[0.703573055,-0.001094812,0.710617996,0.002412825],[-1,-1,1,1],[9E+09,9E+09,9E+09,9E+09,9E+09,9E+09]];
	VAR robtarget P72B_3_2:=[[2175,-58.608006371,657],[0,-0.013816852,0.999904543,0],[-1,-1,1,0],[9E+09,9E+09,9E+09,9E+09,9E+09,9E+09]];
	VAR robtarget P73A_3_2:=[[1985,-58.608006371,657],[0,-0.013816852,0.999904543,0],[-1,-1,1,0],[9E+09,9E+09,9E+09,9E+09,9E+09,9E+09]];
	VAR robtarget P73B_3_2:=[[1870,-58.608006371,657],[0,-0.013816852,0.999904543,0],[-1,-1,1,0],[9E+09,9E+09,9E+09,9E+09,9E+09,9E+09]];
	VAR robtarget P74A_3_2:=[[1680,-58.608006371,657],[0,-0.013816852,0.999904543,0],[-1,0,0,0],[9E+09,9E+09,9E+09,9E+09,9E+09,9E+09]];
	VAR robtarget P74B_3_2:=[[1575,-58.608006371,657],[0,-0.013816852,0.999904543,0],[-1,0,0,0],[9E+09,9E+09,9E+09,9E+09,9E+09,9E+09]];
	VAR robtarget P75A_3_2:=[[1405,-58.608006371,657],[0,-0.013816852,0.999904543,0],[-1,0,0,0],[9E+09,9E+09,9E+09,9E+09,9E+09,9E+09]];
	VAR robtarget P75B_3_2:=[[1300,-58.608006371,657],[0,-0.013816852,0.999904543,0],[-1,0,0,0],[9E+09,9E+09,9E+09,9E+09,9E+09,9E+09]];
	VAR robtarget P76A_3_2:=[[1120,-58.608006371,657],[0,-0.013816852,0.999904543,0],[-1,0,0,0],[9E+09,9E+09,9E+09,9E+09,9E+09,9E+09]];
	VAR robtarget P76B_3_2:=[[1015,-58.608006371,657],[0,-0.013816852,0.999904543,0],[-1,0,0,0],[9E+09,9E+09,9E+09,9E+09,9E+09,9E+09]];
	VAR robtarget P72B_3_3:=[[2175,-758.608006371,657],[0,-0.013816852,0.999904543,0],[-1,-1,1,0],[9E+09,9E+09,9E+09,9E+09,9E+09,9E+09]];
	VAR robtarget P73A_3_3:=[[1985,-758.608006371,657],[0,-0.013816852,0.999904543,0],[-1,-1,1,0],[9E+09,9E+09,9E+09,9E+09,9E+09,9E+09]];
	VAR robtarget P73B_3_3:=[[1870,-758.608006371,657],[0,-0.013816852,0.999904543,0],[-1,-1,1,0],[9E+09,9E+09,9E+09,9E+09,9E+09,9E+09]];
	VAR robtarget P74A_3_3:=[[1680,-758.608006371,657],[0,-0.013816852,0.999904543,0],[-1,0,0,0],[9E+09,9E+09,9E+09,9E+09,9E+09,9E+09]];
	VAR robtarget P74B_3_3:=[[1575,-758.608006371,657],[0,-0.013816852,0.999904543,0],[-1,0,0,0],[9E+09,9E+09,9E+09,9E+09,9E+09,9E+09]];
	VAR robtarget P75A_3_3:=[[1405,-758.608006371,657],[0,-0.013816852,0.999904543,0],[-1,0,0,0],[9E+09,9E+09,9E+09,9E+09,9E+09,9E+09]];
	VAR robtarget P75B_3_3:=[[1300,-758.608006371,657],[0,-0.013816852,0.999904543,0],[-1,0,0,0],[9E+09,9E+09,9E+09,9E+09,9E+09,9E+09]];
	VAR robtarget P76A_3_3:=[[1120,-758.608006371,657],[0,-0.013816852,0.999904543,0],[-1,0,0,0],[9E+09,9E+09,9E+09,9E+09,9E+09,9E+09]];
	VAR robtarget P76B_3_3:=[[1015,-758.608006371,657],[0,-0.013816852,0.999904543,0],[-1,0,0,0],[9E+09,9E+09,9E+09,9E+09,9E+09,9E+09]];
    	VAR robtarget P81A_3_2:=[[2362.214,-63.060957273,904.212831914],[0.703573055,-0.001094812,0.710617996,0.002412825],[-1,-1,1,1],[9E+09,9E+09,9E+09,9E+09,9E+09,9E+09]];
	VAR robtarget P81B_3_2:=[[2372,-63.060957273,904.212831914],[0.703573055,-0.001094812,0.710617996,0.002412825],[-1,-1,1,1],[9E+09,9E+09,9E+09,9E+09,9E+09,9E+09]];
	VAR robtarget P82A_3_2:=[[2187,-63.060957273,904.212831914],[0.703573055,-0.001094812,0.710617996,0.002412825],[-1,-1,1,1],[9E+09,9E+09,9E+09,9E+09,9E+09,9E+09]];
	VAR robtarget P82B_3_2:=[[2175,-58.608006371,537],[0,-0.013816852,0.999904543,0],[-1,-1,1,0],[9E+09,9E+09,9E+09,9E+09,9E+09,9E+09]];
	VAR robtarget P83A_3_2:=[[1985,-58.608006371,537],[0,-0.013816852,0.999904543,0],[-1,-1,1,0],[9E+09,9E+09,9E+09,9E+09,9E+09,9E+09]];
	VAR robtarget P83B_3_2:=[[1870,-58.608006371,537],[0,-0.013816852,0.999904543,0],[-1,-1,1,0],[9E+09,9E+09,9E+09,9E+09,9E+09,9E+09]];
	VAR robtarget P84A_3_2:=[[1680,-58.608006371,537],[0,-0.013816852,0.999904543,0],[-1,0,0,0],[9E+09,9E+09,9E+09,9E+09,9E+09,9E+09]];
	VAR robtarget P84B_3_2:=[[1575,-58.608006371,537],[0,-0.013816852,0.999904543,0],[-1,0,0,0],[9E+09,9E+09,9E+09,9E+09,9E+09,9E+09]];
	VAR robtarget P85A_3_2:=[[1405,-58.608006371,537],[0,-0.013816852,0.999904543,0],[-1,0,0,0],[9E+09,9E+09,9E+09,9E+09,9E+09,9E+09]];
	VAR robtarget P85B_3_2:=[[1300,-58.608006371,537],[0,-0.013816852,0.999904543,0],[-1,0,0,0],[9E+09,9E+09,9E+09,9E+09,9E+09,9E+09]];
	VAR robtarget P86A_3_2:=[[1120,-58.608006371,537],[0,-0.013816852,0.999904543,0],[-1,0,0,0],[9E+09,9E+09,9E+09,9E+09,9E+09,9E+09]];
	VAR robtarget P86B_3_2:=[[1015,-58.608006371,537],[0.087147423,0.013764273,-0.996099604,0.001204218],[-1,0,0,0],[9E+09,9E+09,9E+09,9E+09,9E+09,9E+09]];
	VAR robtarget P82B_3_3:=[[2175,-758.608006371,537],[0,-0.013816852,0.999904543,0],[-1,-1,1,0],[9E+09,9E+09,9E+09,9E+09,9E+09,9E+09]];
	VAR robtarget P83A_3_3:=[[1985,-758.608006371,537],[0,-0.013816852,0.999904543,0],[-1,-1,1,0],[9E+09,9E+09,9E+09,9E+09,9E+09,9E+09]];
	VAR robtarget P83B_3_3:=[[1870,-758.608006371,537],[0,-0.013816852,0.999904543,0],[-1,-1,1,0],[9E+09,9E+09,9E+09,9E+09,9E+09,9E+09]];
	VAR robtarget P84A_3_3:=[[1680,-758.608006371,537],[0,-0.013816852,0.999904543,0],[-1,0,0,0],[9E+09,9E+09,9E+09,9E+09,9E+09,9E+09]];
	VAR robtarget P84B_3_3:=[[1575,-758.608006371,537],[0,-0.013816852,0.999904543,0],[-1,0,0,0],[9E+09,9E+09,9E+09,9E+09,9E+09,9E+09]];
	VAR robtarget P85A_3_3:=[[1405,-758.608006371,537],[0,-0.013816852,0.999904543,0],[-1,0,0,0],[9E+09,9E+09,9E+09,9E+09,9E+09,9E+09]];
	VAR robtarget P85B_3_3:=[[1300,-758.608006371,537],[0,-0.013816852,0.999904543,0],[-1,0,0,0],[9E+09,9E+09,9E+09,9E+09,9E+09,9E+09]];
	VAR robtarget P86A_3_3:=[[1120,-758.608006371,537],[0,-0.013816852,0.999904543,0],[-1,0,0,0],[9E+09,9E+09,9E+09,9E+09,9E+09,9E+09]];
    	VAR robtarget P91A_3_2:=[[2362.214,-63.060957273,784.212831914],[0.703573055,-0.001094812,0.710617996,0.002412825],[-1,-1,1,1],[9E+09,9E+09,9E+09,9E+09,9E+09,9E+09]];
	VAR robtarget P91B_3_2:=[[2372,-63.060957273,784.212831914],[0.703573055,-0.001094812,0.710617996,0.002412825],[-1,-1,1,1],[9E+09,9E+09,9E+09,9E+09,9E+09,9E+09]];
	VAR robtarget P92A_3_2:=[[2187,-63.060957273,784.212831914],[0.703573055,-0.001094812,0.710617996,0.002412825],[-1,-1,1,1],[9E+09,9E+09,9E+09,9E+09,9E+09,9E+09]];
	VAR robtarget P92B_3_2:=[[2175,-58.608006371,417],[0,-0.013816852,0.999904543,0],[-1,-1,1,0],[9E+09,9E+09,9E+09,9E+09,9E+09,9E+09]];
	VAR robtarget P93A_3_2:=[[1985,-58.608006371,417],[0,-0.013816852,0.999904543,0],[-1,-1,1,0],[9E+09,9E+09,9E+09,9E+09,9E+09,9E+09]];
	VAR robtarget P93B_3_2:=[[1870,-58.608006371,417],[0,-0.013816852,0.999904543,0],[-1,-1,1,0],[9E+09,9E+09,9E+09,9E+09,9E+09,9E+09]];
	VAR robtarget P94B_3_2:=[[1680,-58.608006371,417],[0,-0.013816852,0.999904543,0],[-1,0,0,0],[9E+09,9E+09,9E+09,9E+09,9E+09,9E+09]];
	VAR robtarget P94A_3_2:=[[1575,-58.608006371,417],[0,-0.013816852,0.999904543,0],[-1,0,0,0],[9E+09,9E+09,9E+09,9E+09,9E+09,9E+09]];
	VAR robtarget P95A_3_2:=[[1405,-58.608006371,417],[0,-0.013816852,0.999904543,0],[-1,0,0,0],[9E+09,9E+09,9E+09,9E+09,9E+09,9E+09]];
	VAR robtarget P95B_3_2:=[[1300,-58.608006371,417],[0,-0.013816852,0.999904543,0],[-1,0,0,0],[9E+09,9E+09,9E+09,9E+09,9E+09,9E+09]];
	VAR robtarget P92B_3_3:=[[2175,-758.608006371,417],[0,-0.013816852,0.999904543,0],[-1,-1,1,0],[9E+09,9E+09,9E+09,9E+09,9E+09,9E+09]];
	VAR robtarget P93A_3_3:=[[1985,-758.608006371,417],[0,-0.013816852,0.999904543,0],[-1,-1,1,0],[9E+09,9E+09,9E+09,9E+09,9E+09,9E+09]];
